;FLAVOR:Marlin
;TIME:504
;Filament used: 0.255033m
;Layer height: 0.2
;MINX:92.826
;MINY:92.079
;MINZ:0.2
;MAXX:127.173
;MAXY:127.923
;MAXZ:8
;Generated with Creality Slicer 4.8.2-252
M140 S60
M105
M190 S60
M104 S200
M105
M109 S200
M82 ;absolute extrusion mode

G28 ;Home

G92 E0 ;Reset Extruder
G1 Z2.0 F3000 ;Move Z Axis up
G1 X10.1 Y20 Z0.28 F5000.0 ;Move to start position
G1 X10.1 Y200.0 Z0.28 F1500.0 E15 ;Draw the first line
G1 X10.4 Y200.0 Z0.28 F5000.0 ;Move to side a little
G1 X10.4 Y20 Z0.28 F1500.0 E30 ;Draw the second line
G92 E0 ;Reset Extruder
G1 Z2.0 F3000 ;Move Z Axis up

G92 E0
G92 E0
G1 F2400 E-0.8
;LAYER_COUNT:40
;LAYER:0
M107
M204 S2000
G0 F7500 X95.945 Y95.567 Z0.2
M204 S500
;TYPE:SKIRT
G1 F2400 E0
G1 F1500 X96.619 Y94.914 E0.03121
G1 X97.345 Y94.321 E0.06239
G1 X98.12 Y93.793 E0.09358
G1 X98.937 Y93.332 E0.12478
G1 X100.127 Y92.811 E0.16799
G1 X100.241 Y92.769 E0.17203
G1 X101.134 Y92.483 E0.20322
G1 X102.049 Y92.274 E0.23443
G1 X102.977 Y92.143 E0.26561
G1 X103.86 Y92.093 E0.29502
G1 X104.637 Y92.08 E0.32087
G1 X104.974 Y92.079 E0.33208
G1 X105.62 Y92.088 E0.35356
G1 X106.099 Y92.104 E0.36951
G1 X108.743 Y92.178 E0.45748
G1 X111.212 Y92.178 E0.5396
G1 X112.481 Y92.136 E0.58183
G1 X115.184 Y92.081 E0.67175
G1 X115.556 Y92.08 E0.68412
G1 X116.076 Y92.087 E0.70142
G1 X117.012 Y92.14 E0.7326
G1 X117.941 Y92.272 E0.76381
G1 X118.855 Y92.483 E0.79501
G1 X119.747 Y92.77 E0.82617
G1 X120.784 Y93.216 E0.86372
G1 X120.971 Y93.308 E0.87065
G1 X121.794 Y93.757 E0.90183
G1 X122.576 Y94.275 E0.93303
G1 X123.311 Y94.858 E0.96423
G1 X123.993 Y95.501 E0.99541
G1 X124.619 Y96.2 E1.02662
G1 X125.182 Y96.95 E1.05781
G1 X125.68 Y97.745 E1.08901
G1 X126.108 Y98.58 E1.12022
G1 X126.379 Y99.222 E1.1434
G1 X126.416 Y99.318 E1.14682
G1 X126.716 Y100.207 E1.17803
G1 X126.939 Y101.118 E1.20922
G1 X127.083 Y102.044 E1.24039
G1 X127.15 Y103.048 E1.27386
G1 X127.171 Y104.069 E1.30782
G1 X127.173 Y104.295 E1.31534
G1 X127.172 Y116.174 E1.71044
G1 X127.161 Y116.89 E1.73425
G1 X127.106 Y117.826 E1.76544
G1 X126.972 Y118.755 E1.79666
G1 X126.76 Y119.668 E1.82783
G1 X126.47 Y120.56 E1.85903
G1 X126.106 Y121.424 E1.89021
G1 X125.68 Y122.235 E1.92068
G1 X125.596 Y122.38 E1.92625
G1 X125.092 Y123.171 E1.95745
G1 X124.522 Y123.916 E1.98865
G1 X123.891 Y124.609 E2.01982
G1 X123.203 Y125.247 E2.05103
G1 X122.463 Y125.823 E2.08222
G1 X121.677 Y126.335 E2.11342
G1 X120.85 Y126.777 E2.14461
G1 X119.988 Y127.147 E2.17581
G1 X119.098 Y127.443 E2.207
G1 X117.898 Y127.714 E2.24792
G1 X117.582 Y127.767 E2.25858
G1 X116.651 Y127.883 E2.28978
G1 X115.887 Y127.918 E2.31522
G1 X115.411 Y127.923 E2.33105
G1 X104.599 Y127.922 E2.69066
G1 X103.895 Y127.912 E2.71408
G1 X102.958 Y127.859 E2.74529
G1 X102.03 Y127.726 E2.77647
G1 X101.116 Y127.514 E2.80768
G1 X100.224 Y127.226 E2.83886
G1 X99.359 Y126.862 E2.87007
G1 X98.68 Y126.513 E2.89546
G1 X98.512 Y126.419 E2.90186
G1 X97.714 Y125.926 E2.93306
G1 X96.96 Y125.367 E2.96428
G1 X96.257 Y124.747 E2.99546
G1 X95.61 Y124.068 E3.02665
G1 X95.022 Y123.337 E3.05785
G1 X94.499 Y122.559 E3.08903
G1 X94.044 Y121.739 E3.12022
G1 X93.561 Y120.622 E3.1607
G1 X93.519 Y120.508 E3.16474
G1 X93.233 Y119.615 E3.19593
G1 X93.024 Y118.7 E3.22715
G1 X92.893 Y117.772 E3.25832
G1 X92.842 Y116.886 E3.28783
G1 X92.828 Y116.034 E3.31618
G1 X92.826 Y103.985 E3.71693
G1 X92.837 Y103.142 E3.74497
G1 X92.891 Y102.206 E3.77615
G1 X93.024 Y101.278 E3.80733
G1 X93.236 Y100.364 E3.83854
G1 X93.525 Y99.472 E3.86972
G1 X93.889 Y98.607 E3.90094
G1 X94.196 Y98.005 E3.92341
G1 X94.29 Y97.834 E3.9299
G1 X94.777 Y97.032 E3.96111
G1 X95.33 Y96.275 E3.99229
G1 X95.945 Y95.567 E4.02348
M204 S2000
G0 F7500 X96.271 Y95.805
M204 S500
G1 F1500 X96.935 Y95.168 E4.05409
G1 X97.653 Y94.592 E4.0847
G1 X98.418 Y94.079 E4.11534
G1 X99.224 Y93.635 E4.14595
G1 X100.266 Y93.187 E4.18367
G1 X100.38 Y93.145 E4.18771
G1 X101.256 Y92.864 E4.21831
G1 X102.154 Y92.661 E4.24893
G1 X103.067 Y92.536 E4.27958
G1 X103.867 Y92.492 E4.30623
G1 X104.644 Y92.479 E4.33207
G1 X104.969 Y92.479 E4.34288
G1 X105.615 Y92.488 E4.36437
G1 X105.913 Y92.496 E4.37429
G1 X106.141 Y92.506 E4.38188
G1 X108.732 Y92.578 E4.46809
G1 X111.226 Y92.578 E4.55104
G1 X112.489 Y92.536 E4.59307
G1 X115.192 Y92.481 E4.68299
G1 X115.551 Y92.48 E4.69493
G1 X116.071 Y92.487 E4.71223
G1 X116.99 Y92.539 E4.74284
G1 X117.901 Y92.671 E4.77346
G1 X118.797 Y92.882 E4.80408
G1 X119.672 Y93.169 E4.8347
G1 X120.607 Y93.575 E4.86861
G1 X120.794 Y93.667 E4.87554
G1 X121.602 Y94.109 E4.90617
G1 X122.368 Y94.619 E4.93678
G1 X123.087 Y95.194 E4.9674
G1 X123.754 Y95.829 E4.99803
G1 X124.363 Y96.52 E5.02866
G1 X124.909 Y97.26 E5.05925
G1 X125.39 Y98.046 E5.0899
G1 X125.8 Y98.87 E5.12051
G1 X126.006 Y99.366 E5.13838
G1 X126.043 Y99.462 E5.1418
G1 X126.336 Y100.335 E5.17243
G1 X126.553 Y101.229 E5.20302
G1 X126.691 Y102.14 E5.23367
G1 X126.75 Y103.056 E5.2642
G1 X126.771 Y104.077 E5.29816
G1 X126.773 Y104.295 E5.30541
G1 X126.772 Y116.168 E5.70031
G1 X126.761 Y116.884 E5.72413
G1 X126.707 Y117.803 E5.75475
G1 X126.573 Y118.714 E5.78537
G1 X126.361 Y119.61 E5.816
G1 X126.072 Y120.484 E5.84662
G1 X125.708 Y121.329 E5.87722
G1 X125.334 Y122.034 E5.90376
G1 X125.25 Y122.179 E5.90933
G1 X124.754 Y122.955 E5.93997
G1 X124.193 Y123.685 E5.97059
G1 X123.571 Y124.364 E6.00121
G1 X122.892 Y124.986 E6.03184
G1 X122.162 Y125.546 E6.06244
G1 X121.386 Y126.041 E6.09306
G1 X120.57 Y126.467 E6.12367
G1 X119.719 Y126.821 E6.15433
G1 X118.842 Y127.099 E6.18493
G1 X117.831 Y127.32 E6.21935
G1 X117.515 Y127.373 E6.23
G1 X116.602 Y127.486 E6.2606
G1 X115.883 Y127.518 E6.28454
G1 X115.411 Y127.523 E6.30024
G1 X104.604 Y127.522 E6.65968
G1 X103.9 Y127.512 E6.6831
G1 X102.981 Y127.459 E6.71372
G1 X102.07 Y127.326 E6.74434
G1 X101.174 Y127.115 E6.77495
G1 X100.3 Y126.827 E6.80556
G1 X99.454 Y126.464 E6.83618
G1 X98.875 Y126.163 E6.85788
G1 X98.707 Y126.069 E6.86429
G1 X97.924 Y125.585 E6.8949
G1 X97.186 Y125.035 E6.92552
G1 X96.498 Y124.423 E6.95614
G1 X95.866 Y123.754 E6.98675
G1 X95.295 Y123.032 E7.01737
G1 X94.788 Y122.263 E7.048
G1 X94.35 Y121.453 E7.07863
G1 X93.937 Y120.483 E7.1137
G1 X93.895 Y120.369 E7.11774
G1 X93.614 Y119.493 E7.14834
G1 X93.411 Y118.595 E7.17896
G1 X93.286 Y117.682 E7.20961
G1 X93.242 Y116.879 E7.23635
G1 X93.228 Y116.027 E7.2647
G1 X93.226 Y103.985 E7.66521
G1 X93.237 Y103.148 E7.69306
G1 X93.291 Y102.229 E7.72367
G1 X93.424 Y101.318 E7.7543
G1 X93.635 Y100.422 E7.78491
G1 X93.924 Y99.548 E7.81553
G1 X94.287 Y98.702 E7.84615
G1 X94.547 Y98.198 E7.86501
G1 X94.641 Y98.027 E7.8715
G1 X95.119 Y97.24 E7.90213
G1 X95.664 Y96.498 E7.93275
G1 X96.271 Y95.805 E7.96339
M204 S2000
G0 F7500 X96.595 Y96.045
M204 S500
G1 F1500 X97.251 Y95.424 E7.99343
G1 X97.959 Y94.863 E8.02348
G1 X98.714 Y94.367 E8.05352
G1 X99.51 Y93.94 E8.08357
G1 X100.404 Y93.562 E8.11585
G1 X100.518 Y93.52 E8.11989
G1 X101.378 Y93.246 E8.14991
G1 X102.26 Y93.048 E8.17998
G1 X103.155 Y92.93 E8.21
G1 X103.873 Y92.892 E8.23392
G1 X104.65 Y92.879 E8.25976
G1 X104.963 Y92.879 E8.27017
G1 X105.609 Y92.888 E8.29166
G1 X105.896 Y92.896 E8.30121
G1 X106.112 Y92.905 E8.3084
G1 X108.721 Y92.978 E8.39521
G1 X111.239 Y92.978 E8.47896
G1 X112.497 Y92.936 E8.52082
G1 X115.2 Y92.881 E8.61074
G1 X115.545 Y92.88 E8.62222
G1 X116.065 Y92.887 E8.63952
G1 X116.967 Y92.939 E8.66957
G1 X117.86 Y93.071 E8.69959
G1 X118.739 Y93.281 E8.72965
G1 X119.595 Y93.568 E8.75968
G1 X120.431 Y93.934 E8.79003
G1 X120.618 Y94.026 E8.79696
G1 X121.41 Y94.46 E8.827
G1 X122.16 Y94.962 E8.85702
G1 X122.863 Y95.529 E8.88706
G1 X123.513 Y96.156 E8.91709
G1 X124.105 Y96.838 E8.94713
G1 X124.635 Y97.57 E8.97719
G1 X125.097 Y98.345 E9.0072
G1 X125.633 Y99.51 E9.04985
G1 X125.67 Y99.606 E9.05327
G1 X125.957 Y100.462 E9.0833
G1 X126.167 Y101.34 E9.11333
G1 X126.299 Y102.234 E9.14338
G1 X126.35 Y103.064 E9.17104
G1 X126.371 Y104.085 E9.20501
G1 X126.373 Y104.295 E9.21199
G1 X126.372 Y116.162 E9.60669
G1 X126.361 Y116.878 E9.63051
G1 X126.307 Y117.779 E9.66053
G1 X126.174 Y118.672 E9.69056
G1 X125.962 Y119.55 E9.7206
G1 X125.673 Y120.406 E9.75065
G1 X125.31 Y121.233 E9.78069
G1 X124.988 Y121.834 E9.80337
G1 X124.904 Y121.979 E9.80894
G1 X124.417 Y122.74 E9.83899
G1 X123.865 Y123.454 E9.86901
G1 X123.252 Y124.117 E9.89904
G1 X122.582 Y124.723 E9.92909
G1 X121.862 Y125.268 E9.95912
G1 X121.096 Y125.746 E9.98915
G1 X120.291 Y126.155 E10.01918
G1 X119.452 Y126.492 E10.04926
G1 X118.588 Y126.752 E10.07927
G1 X117.765 Y126.925 E10.10724
G1 X117.449 Y126.978 E10.11789
G1 X116.553 Y127.088 E10.14792
G1 X115.878 Y127.118 E10.17039
G1 X115.411 Y127.123 E10.18593
G1 X104.61 Y127.122 E10.54517
G1 X103.906 Y127.112 E10.56859
G1 X103.005 Y127.059 E10.5986
G1 X102.111 Y126.927 E10.62866
G1 X101.233 Y126.716 E10.6587
G1 X100.377 Y126.428 E10.68873
G1 X99.55 Y126.066 E10.71876
G1 X99.07 Y125.814 E10.73679
G1 X98.902 Y125.72 E10.74319
G1 X98.135 Y125.245 E10.7732
G1 X97.412 Y124.703 E10.80325
G1 X96.74 Y124.1 E10.83328
G1 X96.124 Y123.44 E10.86331
G1 X95.569 Y122.728 E10.89334
G1 X95.079 Y121.969 E10.92339
G1 X94.658 Y121.17 E10.95342
G1 X94.312 Y120.345 E10.98318
G1 X94.27 Y120.231 E10.98722
G1 X93.996 Y119.371 E11.01724
G1 X93.798 Y118.489 E11.04731
G1 X93.68 Y117.594 E11.07733
G1 X93.642 Y116.873 E11.10135
G1 X93.628 Y116.021 E11.12969
G1 X93.626 Y103.985 E11.53001
G1 X93.637 Y103.154 E11.55765
G1 X93.69 Y102.252 E11.5877
G1 X93.823 Y101.359 E11.61773
G1 X94.034 Y100.481 E11.64776
G1 X94.323 Y99.625 E11.67781
G1 X94.685 Y98.798 E11.70784
G1 X94.897 Y98.39 E11.72313
G1 X94.991 Y98.219 E11.72962
G1 X95.461 Y97.448 E11.75965
G1 X95.997 Y96.721 E11.78969
G1 X96.595 Y96.045 E11.81971
M204 S2000
G1 F2400 E11.01971
;MESH:clip.stl
G0 F7500 X103.216 Y103.037
G0 X104.24 Y103.491
G0 X104.427 Y116.323
M204 S500
;TYPE:WALL-INNER
G1 F2400 E11.81971
G1 F1500 X104.426 Y103.876 E12.2337
G1 X104.426 Y103.677 E12.24032
G1 X104.625 Y103.677 E12.2446
G1 X105.073 Y103.677 E12.2595
G1 X105.075 Y114.865 E12.63162
G1 X105.298 Y115.369 E12.64995
G1 X105.755 Y115.644 E12.66769
G1 X105.99 Y115.676 E12.67558
G1 X114.115 Y115.675 E12.94582
G1 X114.627 Y115.448 E12.96444
G1 X114.902 Y114.963 E12.98299
G1 X114.927 Y114.733 E12.99068
G1 X114.926 Y103.677 E13.35841
G1 X115.374 Y103.676 E13.37331
G1 X115.573 Y103.676 E13.37993
G1 X115.573 Y103.875 E13.38421
G1 X115.573 Y116.323 E13.79823
G1 X104.427 Y116.323 E14.16895
M204 S2000
G0 F7500 X104.027 Y116.663
M204 S500
;TYPE:WALL-OUTER
G1 F1500 X104.026 Y103.343 E14.61197
G1 X104.087 Y103.277 E14.61496
G1 X105.419 Y103.277 E14.65926
G1 X105.473 Y103.335 E14.6619
G1 X105.475 Y114.78 E15.04256
G1 X105.613 Y115.092 E15.05391
G1 X105.89 Y115.259 E15.06467
G1 X106.017 Y115.276 E15.06893
G1 X114.03 Y115.275 E15.33544
G1 X114.344 Y115.136 E15.34686
G1 X114.513 Y114.837 E15.35829
G1 X114.527 Y114.711 E15.3625
G1 X114.526 Y103.337 E15.7408
G1 X114.589 Y103.277 E15.7437
G1 X115.916 Y103.276 E15.78783
G1 X115.973 Y103.339 E15.79066
G1 X115.973 Y116.67 E16.23405
G1 X115.919 Y116.723 E16.23657
G1 X104.091 Y116.723 E16.62997
G1 X104.027 Y116.663 E16.63289
M204 S2000
G0 F7500 X104.43 Y116.283
G0 X104.817 Y115.933
M204 S500
;TYPE:SKIN
G1 F1500 X104.817 Y115.245 E16.65577
G1 X104.992 Y115.64 E16.67014
G1 X105.479 Y115.933 E16.68904
G1 X104.817 Y115.933 E16.71106
M204 S2000
G0 F7500 X104.817 Y116.213
G0 X114.494 Y116.213
G0 X114.494 Y115.933
M204 S500
G1 F1500 X114.902 Y115.752 E16.72591
G1 X115.183 Y115.258 E16.74481
G1 X115.183 Y115.933 E16.76726
G1 X114.494 Y115.933 E16.79017
M204 S2000
G0 F7500 X114.337 Y116.034
M204 S500
;TYPE:SKIN
G1 F1500 X114.137 Y115.834 E16.79488
M204 S2000
G0 F7500 X113.854 Y115.834
M204 S500
G1 F1500 X114.182 Y116.162 E16.80259
M204 S2000
G0 F7500 X113.899 Y116.162
M204 S500
G1 F1500 X113.571 Y115.834 E16.81031
M204 S2000
G0 F7500 X113.289 Y115.834
M204 S500
G1 F1500 X113.616 Y116.162 E16.81801
M204 S2000
G0 F7500 X113.333 Y116.162
M204 S500
G1 F1500 X113.006 Y115.834 E16.82571
M204 S2000
G0 F7500 X112.723 Y115.834
M204 S500
G1 F1500 X113.05 Y116.162 E16.83341
M204 S2000
G0 F7500 X112.767 Y116.162
M204 S500
G1 F1500 X112.44 Y115.834 E16.84112
M204 S2000
G0 F7500 X112.157 Y115.834
M204 S500
G1 F1500 X112.485 Y116.162 E16.84883
M204 S2000
G0 F7500 X112.202 Y116.162
M204 S500
G1 F1500 X111.874 Y115.834 E16.85654
M204 S2000
G0 F7500 X111.592 Y115.834
M204 S500
G1 F1500 X111.919 Y116.162 E16.86425
M204 S2000
G0 F7500 X111.636 Y116.162
M204 S500
G1 F1500 X111.309 Y115.834 E16.87195
M204 S2000
G0 F7500 X111.026 Y115.834
M204 S500
G1 F1500 X111.353 Y116.162 E16.87965
M204 S2000
G0 F7500 X111.07 Y116.162
M204 S500
G1 F1500 X110.743 Y115.834 E16.88735
M204 S2000
G0 F7500 X110.46 Y115.834
M204 S500
G1 F1500 X110.788 Y116.162 E16.89507
M204 S2000
G0 F7500 X110.505 Y116.162
M204 S500
G1 F1500 X110.177 Y115.834 E16.90278
M204 S2000
G0 F7500 X109.895 Y115.835
M204 S500
G1 F1500 X110.222 Y116.162 E16.91047
M204 S2000
G0 F7500 X109.939 Y116.162
M204 S500
G1 F1500 X109.612 Y115.835 E16.91816
M204 S2000
G0 F7500 X109.33 Y115.835
M204 S500
G1 F1500 X109.656 Y116.162 E16.92584
M204 S2000
G0 F7500 X109.373 Y116.162
M204 S500
G1 F1500 X109.047 Y115.835 E16.93352
M204 S2000
G0 F7500 X108.764 Y115.835
M204 S500
G1 F1500 X109.091 Y116.162 E16.94121
M204 S2000
G0 F7500 X108.808 Y116.162
M204 S500
G1 F1500 X108.481 Y115.835 E16.9489
M204 S2000
G0 F7500 X108.198 Y115.835
M204 S500
G1 F1500 X108.525 Y116.162 E16.95659
M204 S2000
G0 F7500 X108.242 Y116.162
M204 S500
G1 F1500 X107.915 Y115.835 E16.96428
M204 S2000
G0 F7500 X107.632 Y115.835
M204 S500
G1 F1500 X107.959 Y116.162 E16.97197
M204 S2000
G0 F7500 X107.676 Y116.162
M204 S500
G1 F1500 X107.35 Y115.835 E16.97965
M204 S2000
G0 F7500 X107.067 Y115.835
M204 S500
G1 F1500 X107.393 Y116.162 E16.98733
M204 S2000
G0 F7500 X107.111 Y116.162
M204 S500
G1 F1500 X106.784 Y115.835 E16.99502
M204 S2000
G0 F7500 X106.501 Y115.835
M204 S500
G1 F1500 X106.828 Y116.162 E17.00271
M204 S2000
G0 F7500 X106.545 Y116.162
M204 S500
G1 F1500 X106.218 Y115.835 E17.0104
M204 S2000
G0 F7500 X105.929 Y115.829
M204 S500
G1 F1500 X106.262 Y116.162 E17.01823
M204 S2000
G0 F7500 X105.979 Y116.162
M204 S500
G1 F1500 X105.679 Y115.862 E17.02529
M204 S2000
G0 F7500 X105.617 Y116.082
M204 S500
G1 F1500 X105.696 Y116.162 E17.02716
M204 S2000
G0 F7500 X105.696 Y116.213
G0 X104.609 Y116.141
G0 X104.608 Y103.859
G0 X104.891 Y103.859
G0 X105.011 Y114.993
G0 X104.871 Y115.054
M204 S500
G1 F1500 X104.586 Y114.768 E17.03387
M204 S2000
G0 F7500 X104.586 Y114.485
M204 S500
G1 F1500 X104.914 Y114.814 E17.0416
M204 S2000
G0 F7500 X104.914 Y114.531
M204 S500
G1 F1500 X104.586 Y114.202 E17.04932
M204 S2000
G0 F7500 X104.586 Y113.919
M204 S500
G1 F1500 X104.914 Y114.248 E17.05705
M204 S2000
G0 F7500 X104.914 Y113.965
M204 S500
G1 F1500 X104.586 Y113.637 E17.06476
M204 S2000
G0 F7500 X104.586 Y113.354
M204 S500
G1 F1500 X104.914 Y113.682 E17.07248
M204 S2000
G0 F7500 X104.914 Y113.4
M204 S500
G1 F1500 X104.586 Y113.071 E17.0802
M204 S2000
G0 F7500 X104.586 Y112.788
M204 S500
G1 F1500 X104.914 Y113.117 E17.08793
M204 S2000
G0 F7500 X104.914 Y112.834
M204 S500
G1 F1500 X104.586 Y112.505 E17.09566
M204 S2000
G0 F7500 X104.586 Y112.222
M204 S500
G1 F1500 X104.914 Y112.551 E17.10338
M204 S2000
G0 F7500 X104.914 Y112.268
M204 S500
G1 F1500 X104.586 Y111.939 E17.11111
M204 S2000
G0 F7500 X104.586 Y111.657
M204 S500
G1 F1500 X104.914 Y111.985 E17.11882
M204 S2000
G0 F7500 X104.914 Y111.702
M204 S500
G1 F1500 X104.586 Y111.374 E17.12654
M204 S2000
G0 F7500 X104.586 Y111.091
M204 S500
G1 F1500 X104.914 Y111.419 E17.13425
M204 S2000
G0 F7500 X104.914 Y111.136
M204 S500
G1 F1500 X104.586 Y110.808 E17.14196
M204 S2000
G0 F7500 X104.586 Y110.525
M204 S500
G1 F1500 X104.914 Y110.853 E17.14968
M204 S2000
G0 F7500 X104.914 Y110.57
M204 S500
G1 F1500 X104.586 Y110.242 E17.15739
M204 S2000
G0 F7500 X104.586 Y109.96
M204 S500
G1 F1500 X104.914 Y110.288 E17.16511
M204 S2000
G0 F7500 X104.914 Y110.005
M204 S500
G1 F1500 X104.586 Y109.677 E17.17282
M204 S2000
G0 F7500 X104.585 Y109.393
M204 S500
G1 F1500 X104.914 Y109.722 E17.18056
M204 S2000
G0 F7500 X104.914 Y109.439
M204 S500
G1 F1500 X104.585 Y109.11 E17.1883
