;FLAVOR:Marlin
;TIME:497
;Filament used: 0.245596m
;Layer height: 0.2
;MINX:93.077
;MINY:92.08
;MINZ:0.2
;MAXX:126.922
;MAXY:127.923
;MAXZ:8
;Generated with Creality Slicer 4.8.2-252
M140 S60
M105
M190 S60
M104 S200
M105
M109 S200
M82 ;absolute extrusion mode

G28 ;Home

G92 E0 ;Reset Extruder
G1 Z2.0 F3000 ;Move Z Axis up
G1 X10.1 Y20 Z0.28 F5000.0 ;Move to start position
G1 X10.1 Y200.0 Z0.28 F1500.0 E15 ;Draw the first line
G1 X10.4 Y200.0 Z0.28 F5000.0 ;Move to side a little
G1 X10.4 Y20 Z0.28 F1500.0 E30 ;Draw the second line
G92 E0 ;Reset Extruder
G1 Z2.0 F3000 ;Move Z Axis up

G92 E0
G92 E0
G1 F2400 E-0.8
;LAYER_COUNT:40
;LAYER:0
M107
M204 S2000
G0 F7500 X96.109 Y95.648 Z0.2
M204 S500
;TYPE:SKIRT
G1 F2400 E0
G1 F1500 X96.778 Y94.99 E0.03121
G1 X97.5 Y94.391 E0.06241
G1 X98.27 Y93.856 E0.0936
G1 X99.084 Y93.389 E0.12481
G1 X99.848 Y93.029 E0.1529
G1 X99.975 Y92.975 E0.15749
G1 X100.853 Y92.645 E0.18869
G1 X101.756 Y92.391 E0.21989
G1 X102.677 Y92.215 E0.25107
G1 X104.065 Y92.1 E0.2974
G1 X104.99 Y92.082 E0.32817
G1 X105.369 Y92.081 E0.34077
G1 X106.125 Y92.094 E0.36592
G1 X108.595 Y92.166 E0.44811
G1 X111.097 Y92.168 E0.53133
G1 X112.097 Y92.136 E0.5646
G1 X114.971 Y92.081 E0.66021
G1 X115.348 Y92.08 E0.67275
G1 X115.875 Y92.088 E0.69028
G1 X116.811 Y92.142 E0.72146
G1 X117.74 Y92.276 E0.75268
G1 X118.653 Y92.489 E0.78386
G1 X119.545 Y92.778 E0.81505
G1 X120.409 Y93.142 E0.84623
G1 X121.239 Y93.579 E0.87743
G1 X122.029 Y94.085 E0.90864
G1 X122.773 Y94.656 E0.93983
G1 X123.278 Y95.106 E0.96233
G1 X123.472 Y95.29 E0.97122
G1 X124.124 Y95.964 E1.00241
G1 X124.717 Y96.691 E1.03361
G1 X125.245 Y97.465 E1.06478
G1 X125.706 Y98.282 E1.09598
G1 X126.095 Y99.136 E1.12719
G1 X126.41 Y100.019 E1.15837
G1 X126.649 Y100.926 E1.18957
G1 X126.81 Y101.85 E1.22076
G1 X126.9 Y103.051 E1.26082
G1 X126.92 Y104.049 E1.29402
G1 X126.922 Y104.269 E1.30134
G1 X126.921 Y116.142 E1.69623
G1 X126.91 Y116.867 E1.72035
G1 X126.856 Y117.803 E1.75153
G1 X126.722 Y118.731 E1.78272
G1 X126.509 Y119.645 E1.81393
G1 X126.22 Y120.537 E1.84512
G1 X125.856 Y121.401 E1.8763
G1 X125.419 Y122.231 E1.9075
G1 X125.048 Y122.826 E1.93082
G1 X124.93 Y123.002 E1.93787
G1 X124.375 Y123.758 E1.96906
G1 X123.757 Y124.464 E2.00027
G1 X123.082 Y125.114 E2.03144
G1 X122.354 Y125.705 E2.06263
G1 X121.578 Y126.232 E2.09383
G1 X120.76 Y126.691 E2.12502
G1 X119.905 Y127.078 E2.15624
G1 X119.021 Y127.392 E2.18744
G1 X118.114 Y127.628 E2.21861
G1 X117.615 Y127.724 E2.23551
G1 X117.359 Y127.767 E2.24415
G1 X116.428 Y127.883 E2.27535
G1 X115.668 Y127.918 E2.30066
G1 X115.2 Y127.923 E2.31622
G1 X104.823 Y127.922 E2.66136
G1 X104.143 Y127.912 E2.68398
G1 X103.207 Y127.858 E2.71517
G1 X102.279 Y127.725 E2.74635
G1 X101.365 Y127.513 E2.77755
G1 X100.473 Y127.224 E2.80874
G1 X99.608 Y126.86 E2.83995
G1 X99.05 Y126.576 E2.86078
G1 X98.879 Y126.483 E2.86725
G1 X98.074 Y126.001 E2.89846
G1 X97.314 Y125.451 E2.92966
G1 X96.604 Y124.839 E2.96084
G1 X95.948 Y124.168 E2.99205
G1 X95.352 Y123.444 E3.02324
G1 X94.82 Y122.672 E3.05442
G1 X94.355 Y121.857 E3.08563
G1 X93.962 Y121.006 E3.11681
G1 X93.642 Y120.124 E3.14801
G1 X93.399 Y119.219 E3.17918
G1 X93.292 Y118.68 E3.19746
G1 X93.239 Y118.371 E3.20788
G1 X93.12 Y117.44 E3.2391
G1 X93.082 Y116.625 E3.26624
G1 X93.077 Y116.127 E3.2828
G1 X93.077 Y103.828 E3.69187
G1 X93.087 Y103.143 E3.71465
G1 X93.141 Y102.207 E3.74584
G1 X93.274 Y101.279 E3.77702
G1 X93.486 Y100.365 E3.80823
G1 X93.775 Y99.473 E3.83941
G1 X93.996 Y98.923 E3.85913
G1 X94.062 Y98.771 E3.86464
G1 X94.472 Y97.927 E3.89585
G1 X94.952 Y97.122 E3.92702
G1 X95.499 Y96.36 E3.95822
G1 X96.109 Y95.648 E3.9894
M204 S2000
G0 F7500 X96.448 Y95.871
M204 S500
G1 F1500 X97.109 Y95.23 E4.02003
G1 X97.823 Y94.649 E4.05064
G1 X98.585 Y94.132 E4.08127
G1 X99.388 Y93.683 E4.11187
G1 X100.004 Y93.397 E4.13446
G1 X100.131 Y93.343 E4.13905
G1 X100.993 Y93.02 E4.16967
G1 X101.88 Y92.773 E4.20029
G1 X102.785 Y92.604 E4.23091
G1 X104.073 Y92.5 E4.27389
G1 X104.998 Y92.482 E4.30466
G1 X105.363 Y92.481 E4.3168
G1 X106.113 Y92.494 E4.34175
G1 X108.583 Y92.566 E4.42394
G1 X111.11 Y92.568 E4.50798
G1 X112.104 Y92.536 E4.54106
G1 X114.978 Y92.481 E4.63667
G1 X115.342 Y92.48 E4.64878
G1 X115.869 Y92.488 E4.66631
G1 X116.788 Y92.542 E4.69693
G1 X117.699 Y92.676 E4.72755
G1 X118.595 Y92.888 E4.75818
G1 X119.469 Y93.177 E4.78879
G1 X120.315 Y93.54 E4.81941
G1 X121.126 Y93.976 E4.85004
G1 X121.896 Y94.481 E4.88066
G1 X122.619 Y95.05 E4.91126
G1 X123.002 Y95.396 E4.92843
G1 X123.196 Y95.58 E4.93732
G1 X123.836 Y96.242 E4.96795
G1 X124.416 Y96.957 E4.99857
G1 X124.932 Y97.72 E5.02921
G1 X125.38 Y98.524 E5.05982
G1 X125.756 Y99.364 E5.09043
G1 X126.058 Y100.234 E5.12106
G1 X126.283 Y101.127 E5.15169
G1 X126.43 Y102.036 E5.18231
G1 X126.5 Y103.059 E5.21642
G1 X126.52 Y104.057 E5.24962
G1 X126.522 Y104.269 E5.25667
G1 X126.521 Y116.136 E5.65137
G1 X126.51 Y116.861 E5.67549
G1 X126.456 Y117.78 E5.7061
G1 X126.322 Y118.691 E5.73673
G1 X126.11 Y119.587 E5.76735
G1 X125.821 Y120.461 E5.79797
G1 X125.458 Y121.307 E5.82859
G1 X125.022 Y122.118 E5.85922
G1 X124.715 Y122.603 E5.87831
G1 X124.597 Y122.779 E5.88535
G1 X124.052 Y123.521 E5.91598
G1 X123.444 Y124.212 E5.94659
G1 X122.779 Y124.848 E5.97719
G1 X122.061 Y125.425 E6.00783
G1 X121.295 Y125.936 E6.03846
G1 X120.488 Y126.379 E6.06907
G1 X119.646 Y126.751 E6.09969
G1 X118.775 Y127.048 E6.1303
G1 X117.549 Y127.33 E6.17214
G1 X117.293 Y127.373 E6.18077
G1 X116.379 Y127.485 E6.2114
G1 X115.663 Y127.518 E6.23524
G1 X115.2 Y127.523 E6.25064
G1 X104.829 Y127.522 E6.59558
G1 X104.149 Y127.512 E6.6182
G1 X103.23 Y127.458 E6.64882
G1 X102.319 Y127.325 E6.67944
G1 X101.423 Y127.114 E6.71006
G1 X100.549 Y126.825 E6.74068
G1 X99.703 Y126.462 E6.77129
G1 X99.241 Y126.225 E6.78856
G1 X99.07 Y126.132 E6.79504
G1 X98.281 Y125.657 E6.82567
G1 X97.536 Y125.116 E6.85629
G1 X96.841 Y124.512 E6.88692
G1 X96.201 Y123.85 E6.91754
G1 X95.621 Y123.136 E6.94814
G1 X95.105 Y122.373 E6.97877
G1 X94.657 Y121.569 E7.00939
G1 X94.281 Y120.728 E7.04003
G1 X93.979 Y119.859 E7.07063
G1 X93.687 Y118.612 E7.11322
G1 X93.634 Y118.303 E7.12365
G1 X93.517 Y117.39 E7.15427
G1 X93.482 Y116.621 E7.17987
G1 X93.477 Y116.127 E7.1963
G1 X93.477 Y103.834 E7.60517
G1 X93.487 Y103.149 E7.62795
G1 X93.541 Y102.23 E7.65857
G1 X93.673 Y101.319 E7.68919
G1 X93.885 Y100.423 E7.71981
G1 X94.173 Y99.549 E7.75042
G1 X94.363 Y99.082 E7.76719
G1 X94.429 Y98.93 E7.7727
G1 X94.832 Y98.102 E7.80333
G1 X95.305 Y97.313 E7.83392
G1 X95.845 Y96.567 E7.86455
G1 X96.448 Y95.871 E7.89518
M204 S2000
G0 F7500 X96.786 Y96.096
M204 S500
G1 F1500 X97.439 Y95.472 E7.92522
G1 X98.145 Y94.909 E7.95526
G1 X98.898 Y94.41 E7.9853
G1 X99.691 Y93.979 E8.01532
G1 X100.161 Y93.765 E8.0325
G1 X100.288 Y93.711 E8.03709
G1 X101.134 Y93.395 E8.06712
G1 X102.004 Y93.155 E8.09714
G1 X102.893 Y92.993 E8.1272
G1 X104.081 Y92.9 E8.16683
G1 X105.006 Y92.882 E8.1976
G1 X105.357 Y92.881 E8.20928
G1 X106.102 Y92.893 E8.23406
G1 X108.607 Y92.966 E8.31741
G1 X111.092 Y92.968 E8.40006
G1 X112.112 Y92.936 E8.434
G1 X114.986 Y92.881 E8.52961
G1 X115.336 Y92.88 E8.54125
G1 X115.863 Y92.888 E8.55878
G1 X116.764 Y92.942 E8.5888
G1 X117.658 Y93.075 E8.61887
G1 X118.536 Y93.287 E8.64891
G1 X119.391 Y93.575 E8.67891
G1 X120.218 Y93.938 E8.70895
G1 X121.01 Y94.373 E8.73901
G1 X121.76 Y94.876 E8.76904
G1 X122.727 Y95.686 E8.811
G1 X122.921 Y95.87 E8.81989
G1 X123.548 Y96.52 E8.84993
G1 X124.115 Y97.223 E8.87997
G1 X124.618 Y97.973 E8.91
G1 X125.053 Y98.765 E8.94006
G1 X125.415 Y99.592 E8.97008
G1 X125.704 Y100.448 E9.00013
G1 X125.915 Y101.326 E9.03017
G1 X126.048 Y102.219 E9.0602
G1 X126.1 Y103.067 E9.08845
G1 X126.12 Y104.065 E9.12165
G1 X126.122 Y104.269 E9.12844
G1 X126.121 Y116.13 E9.52294
G1 X126.11 Y116.855 E9.54705
G1 X126.056 Y117.756 E9.57708
G1 X125.923 Y118.649 E9.6071
G1 X125.711 Y119.527 E9.63715
G1 X125.423 Y120.383 E9.66719
G1 X125.06 Y121.21 E9.69722
G1 X124.383 Y122.38 E9.74218
G1 X124.265 Y122.556 E9.74923
G1 X123.729 Y123.283 E9.77927
G1 X123.132 Y123.96 E9.80929
G1 X122.476 Y124.581 E9.83934
G1 X121.768 Y125.142 E9.86938
G1 X121.014 Y125.639 E9.89942
G1 X120.218 Y126.066 E9.92946
G1 X119.388 Y126.421 E9.95949
G1 X118.53 Y126.702 E9.98952
G1 X117.483 Y126.935 E10.02519
G1 X117.227 Y126.978 E10.03383
G1 X116.33 Y127.088 E10.06388
G1 X115.658 Y127.118 E10.08626
G1 X115.2 Y127.123 E10.10149
G1 X104.835 Y127.122 E10.44623
G1 X104.155 Y127.112 E10.46885
G1 X103.253 Y127.059 E10.4989
G1 X102.36 Y126.926 E10.52893
G1 X101.482 Y126.715 E10.55897
G1 X100.626 Y126.426 E10.58902
G1 X99.432 Y125.874 E10.63277
G1 X99.261 Y125.781 E10.63924
G1 X98.487 Y125.314 E10.66931
G1 X97.758 Y124.782 E10.69932
G1 X97.079 Y124.186 E10.72937
G1 X96.455 Y123.533 E10.75941
G1 X95.891 Y122.828 E10.78944
G1 X95.392 Y122.075 E10.81949
G1 X94.961 Y121.281 E10.84954
G1 X94.603 Y120.453 E10.87954
G1 X94.319 Y119.595 E10.9096
G1 X94.081 Y118.544 E10.94544
G1 X94.028 Y118.235 E10.95587
G1 X93.915 Y117.339 E10.98591
G1 X93.882 Y116.617 E11.00994
G1 X93.877 Y116.127 E11.02624
G1 X93.877 Y103.84 E11.43491
G1 X93.887 Y103.155 E11.4577
G1 X93.94 Y102.254 E11.48772
G1 X94.073 Y101.36 E11.51778
G1 X94.284 Y100.482 E11.54781
G1 X94.73 Y99.241 E11.59167
G1 X94.796 Y99.089 E11.59718
G1 X95.192 Y98.278 E11.6272
G1 X95.658 Y97.504 E11.65725
G1 X96.191 Y96.775 E11.68729
G1 X96.786 Y96.096 E11.71731
M204 S2000
G1 F2400 E10.91731
;MESH:clip.stl
G0 F7500 X103.466 Y103.035
G0 X104.49 Y103.49
G0 X105.141 Y103.859
G0 X105.485 Y114.765
G0 X105.613 Y115.177
G0 X105.973 Y115.46
G0 X106.259 Y115.516
G0 X113.82 Y115.514
G0 X114.798 Y115.09
G0 X114.858 Y103.859
G0 X115.14 Y103.859
G0 X115.322 Y116.323
M204 S500
;TYPE:WALL-INNER
G1 F2400 E11.71731
G1 F1500 X104.677 Y116.323 E12.07137
G1 X104.676 Y103.875 E12.48539
G1 X104.676 Y103.676 E12.49201
G1 X104.875 Y103.676 E12.49629
G1 X105.323 Y103.677 E12.51119
G1 X105.324 Y114.79 E12.88081
G1 X105.472 Y115.273 E12.89761
G1 X105.903 Y115.611 E12.91583
G1 X106.243 Y115.677 E12.92735
G1 X113.853 Y115.675 E13.18046
G1 X114.339 Y115.476 E13.19793
G1 X114.634 Y115.027 E13.2158
G1 X114.677 Y114.745 E13.22528
G1 X114.676 Y103.876 E13.58679
G1 X114.676 Y103.677 E13.59341
G1 X114.875 Y103.677 E13.59769
G1 X115.322 Y103.677 E13.61256
G1 X115.322 Y116.323 E14.03316
M204 S2000
G0 F7500 X115.661 Y116.723
M204 S500
;TYPE:WALL-OUTER
G1 F1500 X104.331 Y116.723 E14.41
G1 X104.277 Y116.669 E14.41254
G1 X104.276 Y103.343 E14.85577
G1 X104.338 Y103.276 E14.8588
G1 X105.661 Y103.277 E14.90281
G1 X105.723 Y103.337 E14.90567
G1 X105.724 Y114.73 E15.28461
G1 X105.818 Y115.036 E15.29525
G1 X106.074 Y115.237 E15.30608
G1 X106.281 Y115.277 E15.31309
G1 X113.774 Y115.275 E15.56231
G1 X114.073 Y115.153 E15.57305
G1 X114.252 Y114.881 E15.58388
G1 X114.277 Y114.715 E15.58946
G1 X114.276 Y103.334 E15.968
G1 X114.339 Y103.277 E15.97082
G1 X115.665 Y103.277 E16.01493
G1 X115.722 Y103.333 E16.01758
G1 X115.722 Y116.658 E16.46078
G1 X115.661 Y116.723 E16.46374
M204 S2000
G0 F7500 X115.282 Y116.32
G0 X114.932 Y115.933
M204 S500
;TYPE:SKIN
G1 F1500 X114.252 Y115.933 E16.48636
G1 X114.598 Y115.792 E16.49878
G1 X114.932 Y115.284 E16.51901
G1 X114.932 Y115.933 E16.54059
M204 S2000
G1 F2400 E15.74059
G0 F7500 X115.212 Y115.933
G0 X115.14 Y103.859
G0 X114.858 Y103.859
G0 X114.454 Y115.616
G0 X105.854 Y115.715
G0 X105.682 Y115.933
M204 S500
G1 F2400 E16.54059
G1 F1500 X105.067 Y115.933 E16.56105
G1 X105.067 Y115.283 E16.58267
G1 X105.135 Y115.505 E16.59039
G1 X105.682 Y115.933 E16.61349
M204 S2000
G0 F7500 X105.836 Y116.019
M204 S500
;TYPE:SKIN
G1 F1500 X105.979 Y116.162 E16.61685
M204 S2000
G0 F7500 X106.262 Y116.162
M204 S500
G1 F1500 X105.865 Y115.765 E16.62619
M204 S2000
G0 F7500 X106.218 Y115.834
M204 S500
G1 F1500 X106.545 Y116.162 E16.63389
M204 S2000
G0 F7500 X106.828 Y116.162
M204 S500
G1 F1500 X106.502 Y115.836 E16.64156
M204 S2000
G0 F7500 X106.785 Y115.836
M204 S500
G1 F1500 X107.111 Y116.162 E16.64922
M204 S2000
G0 F7500 X107.393 Y116.162
M204 S500
G1 F1500 X107.067 Y115.836 E16.65689
M204 S2000
G0 F7500 X107.35 Y115.836
M204 S500
G1 F1500 X107.676 Y116.162 E16.66456
M204 S2000
G0 F7500 X107.959 Y116.162
M204 S500
G1 F1500 X107.633 Y115.836 E16.67223
M204 S2000
G0 F7500 X107.916 Y115.836
M204 S500
G1 F1500 X108.242 Y116.162 E16.67989
M204 S2000
G0 F7500 X108.525 Y116.162
M204 S500
G1 F1500 X108.199 Y115.836 E16.68756
M204 S2000
G0 F7500 X108.482 Y115.836
M204 S500
G1 F1500 X108.808 Y116.162 E16.69523
M204 S2000
G0 F7500 X109.091 Y116.162
M204 S500
G1 F1500 X108.765 Y115.836 E16.70289
M204 S2000
G0 F7500 X109.047 Y115.835
M204 S500
G1 F1500 X109.373 Y116.162 E16.71057
M204 S2000
G0 F7500 X109.656 Y116.162
M204 S500
G1 F1500 X109.33 Y115.835 E16.71825
M204 S2000
G0 F7500 X109.612 Y115.835
M204 S500
G1 F1500 X109.939 Y116.162 E16.72594
M204 S2000
G0 F7500 X110.222 Y116.162
M204 S500
G1 F1500 X109.895 Y115.835 E16.73363
M204 S2000
G0 F7500 X110.178 Y115.835
M204 S500
G1 F1500 X110.505 Y116.162 E16.74132
M204 S2000
G0 F7500 X110.788 Y116.162
M204 S500
G1 F1500 X110.461 Y115.835 E16.74901
M204 S2000
G0 F7500 X110.744 Y115.835
M204 S500
G1 F1500 X111.07 Y116.162 E16.75669
M204 S2000
G0 F7500 X111.353 Y116.162
M204 S500
G1 F1500 X111.027 Y115.835 E16.76437
M204 S2000
G0 F7500 X111.309 Y115.835
M204 S500
G1 F1500 X111.636 Y116.162 E16.77206
M204 S2000
G0 F7500 X111.919 Y116.162
M204 S500
G1 F1500 X111.592 Y115.834 E16.77976
M204 S2000
G0 F7500 X111.874 Y115.834
M204 S500
G1 F1500 X112.202 Y116.162 E16.78748
M204 S2000
G0 F7500 X112.485 Y116.162
M204 S500
G1 F1500 X112.157 Y115.834 E16.79519
M204 S2000
G0 F7500 X112.44 Y115.834
M204 S500
G1 F1500 X112.767 Y116.162 E16.80289
M204 S2000
G0 F7500 X113.05 Y116.162
M204 S500
G1 F1500 X112.723 Y115.834 E16.8106
M204 S2000
G0 F7500 X113.006 Y115.834
M204 S500
G1 F1500 X113.333 Y116.162 E16.8183
M204 S2000
G0 F7500 X113.616 Y116.162
M204 S500
G1 F1500 X113.289 Y115.834 E16.826
M204 S2000
G0 F7500 X113.571 Y115.834
M204 S500
G1 F1500 X113.899 Y116.162 E16.83372
M204 S2000
G0 F7500 X114.103 Y116.083
M204 S500
G1 F1500 X113.854 Y115.834 E16.83957
M204 S2000
G0 F7500 X113.855 Y115.785
G0 X114.778 Y114.817
G0 X114.825 Y114.825
M204 S500
G1 F1500 X115.162 Y115.162 E16.8475
M204 S2000
G0 F7500 X115.162 Y114.879
M204 S500
G1 F1500 X114.835 Y114.552 E16.85519
M204 S2000
G0 F7500 X114.835 Y114.269
M204 S500
G1 F1500 X115.162 Y114.596 E16.86288
M204 S2000
G0 F7500 X115.162 Y114.313
M204 S500
G1 F1500 X114.835 Y113.987 E16.87056
M204 S2000
G0 F7500 X114.835 Y113.704
M204 S500
G1 F1500 X115.162 Y114.03 E16.87824
M204 S2000
G0 F7500 X115.162 Y113.748
M204 S500
G1 F1500 X114.835 Y113.421 E16.88593
M204 S2000
G0 F7500 X114.835 Y113.138
M204 S500
G1 F1500 X115.162 Y113.465 E16.89362
M204 S2000
G0 F7500 X115.162 Y113.182
M204 S500
G1 F1500 X114.835 Y112.855 E16.90131
M204 S2000
G0 F7500 X114.835 Y112.572
M204 S500
G1 F1500 X115.162 Y112.899 E16.909
M204 S2000
G0 F7500 X115.162 Y112.616
M204 S500
G1 F1500 X114.835 Y112.289 E16.91669
M204 S2000
G0 F7500 X114.835 Y112.007
M204 S500
G1 F1500 X115.162 Y112.333 E16.92437
M204 S2000
G0 F7500 X115.162 Y112.05
M204 S500
G1 F1500 X114.835 Y111.724 E16.93205
M204 S2000
G0 F7500 X114.835 Y111.441
M204 S500
G1 F1500 X115.162 Y111.768 E16.93974
M204 S2000
G0 F7500 X115.162 Y111.485
M204 S500
G1 F1500 X114.835 Y111.158 E16.94743
M204 S2000
G0 F7500 X114.835 Y110.875
M204 S500
G1 F1500 X115.162 Y111.202 E16.95512
M204 S2000
G0 F7500 X115.162 Y110.919
M204 S500
G1 F1500 X114.835 Y110.592 E16.96281
M204 S2000
G0 F7500 X114.835 Y110.31
M204 S500
G1 F1500 X115.162 Y110.636 E16.97049
M204 S2000
G0 F7500 X115.162 Y110.353
M204 S500
G1 F1500 X114.835 Y110.027 E16.97817
M204 S2000
G0 F7500 X114.835 Y109.744
M204 S500
G1 F1500 X115.162 Y110.071 E16.98586
M204 S2000
G0 F7500 X115.162 Y109.788
M204 S500
G1 F1500 X114.835 Y109.461 E16.99355
M204 S2000
G0 F7500 X114.835 Y109.178
M204 S500
G1 F1500 X115.162 Y109.505 E17.00124
M204 S2000
G0 F7500 X115.161 Y109.221
M204 S500
G1 F1500 X114.835 Y108.895 E17.0089
M204 S2000
G0 F7500 X114.835 Y108.613
M204 S500
G1 F1500 X115.161 Y108.938 E17.01656
M204 S2000
G0 F7500 X115.161 Y108.656
