;FLAVOR:Marlin
;TIME:7375
;Filament used: 4.27931m
;Layer height: 0.2
;MINX:66.078
;MINY:66.076
;MINZ:0.2
;MAXX:153.923
;MAXY:155.923
;MAXZ:8
;Generated with Creality Slicer 4.8.2-252
M140 S60
M105
M190 S60
M104 S200
M105
M109 S200
M82 ;absolute extrusion mode

G28 ;Home

G92 E0 ;Reset Extruder
G1 Z2.0 F3000 ;Move Z Axis up
G1 X10.1 Y20 Z0.28 F5000.0 ;Move to start position
G1 X10.1 Y200.0 Z0.28 F1500.0 E15 ;Draw the first line
G1 X10.4 Y200.0 Z0.28 F5000.0 ;Move to side a little
G1 X10.4 Y20 Z0.28 F1500.0 E30 ;Draw the second line
G92 E0 ;Reset Extruder
G1 Z2.0 F3000 ;Move Z Axis up

G92 E0
G92 E0
G1 F2400 E-0.8
;LAYER_COUNT:40
;LAYER:0
M107
M204 S2000
G0 F7500 X69.962 Y79.847 Z0.2
M204 S500
;TYPE:SKIRT
G1 F2400 E0
G1 F1500 X70.693 Y79.26 E0.03118
G1 X71.472 Y78.737 E0.06239
G1 X72.292 Y78.283 E0.09356
G1 X73.258 Y77.857 E0.12868
G1 X73.349 Y77.822 E0.13192
G1 X74.427 Y77.47 E0.16964
G1 X74.647 Y77.41 E0.17722
G1 X77.076 Y76.721 E0.2612
G1 X79.511 Y75.955 E0.3461
G1 X81.898 Y75.13 E0.4301
G1 X84.243 Y74.243 E0.51349
G1 X86.539 Y73.301 E0.59603
G1 X88.869 Y72.265 E0.68084
G1 X91.146 Y71.177 E0.76478
G1 X93.343 Y70.049 E0.84692
G1 X96.747 Y68.146 E0.97663
G1 X97.611 Y67.64 E1.00993
G1 X98.439 Y67.201 E1.0411
G1 X99.302 Y66.834 E1.07229
G1 X99.87 Y66.638 E1.09228
G1 X100.013 Y66.593 E1.09726
G1 X100.919 Y66.35 E1.12846
G1 X101.842 Y66.185 E1.15965
G1 X102.971 Y66.091 E1.19733
G1 X103.227 Y66.083 E1.20585
G1 X103.569 Y66.078 E1.21722
G1 X115.988 Y66.076 E1.63028
G1 X116.861 Y66.088 E1.65932
G1 X117.798 Y66.143 E1.69054
G1 X118.726 Y66.277 E1.72172
G1 X119.639 Y66.49 E1.7529
G1 X120.531 Y66.78 E1.7841
G1 X121.034 Y66.982 E1.80213
G1 X121.22 Y67.062 E1.80886
G1 X122.432 Y67.674 E1.85402
G1 X123.388 Y68.234 E1.89087
G1 X125.647 Y69.512 E1.9772
G1 X127.859 Y70.682 E2.06043
G1 X130.12 Y71.797 E2.14428
G1 X132.391 Y72.838 E2.22737
G1 X134.719 Y73.827 E2.31149
G1 X137.112 Y74.765 E2.39698
G1 X139.423 Y75.594 E2.47864
G1 X141.802 Y76.374 E2.56191
G1 X144.843 Y77.267 E2.66733
G1 X145.625 Y77.483 E2.69431
G1 X146.518 Y77.77 E2.72551
G1 X147.383 Y78.133 E2.75671
G1 X148.006 Y78.451 E2.77997
G1 X148.173 Y78.543 E2.78631
G1 X148.974 Y79.03 E2.81749
G1 X149.731 Y79.584 E2.84869
G1 X150.438 Y80.2 E2.87988
G1 X151.09 Y80.874 E2.91107
G1 X151.683 Y81.602 E2.9423
G1 X152.211 Y82.377 E2.97349
G1 X152.671 Y83.194 E3.00468
G1 X153.157 Y84.294 E3.04467
G1 X153.197 Y84.4 E3.04844
G1 X153.49 Y85.291 E3.07964
G1 X153.706 Y86.204 E3.11084
G1 X153.844 Y87.131 E3.14201
G1 X153.903 Y88.069 E3.17327
G1 X153.921 Y88.988 E3.20385
G1 X153.923 Y89.202 E3.21096
G1 X153.923 Y101.146 E3.60822
G1 X153.913 Y101.849 E3.63161
G1 X153.887 Y102.463 E3.65205
G1 X153.801 Y103.685 E3.69279
G1 X153.654 Y106.309 E3.7802
G1 X153.583 Y108.83 E3.86409
G1 X153.585 Y111.355 E3.94807
G1 X153.656 Y113.845 E4.03092
G1 X153.801 Y116.382 E4.11544
G1 X153.859 Y117.107 E4.13963
G1 X153.893 Y117.649 E4.15769
G1 X153.905 Y117.899 E4.16602
G1 X153.914 Y118.15 E4.17437
G1 X153.921 Y118.458 E4.18462
G1 X153.923 Y118.798 E4.19592
G1 X153.923 Y131.104 E4.60522
G1 X153.913 Y131.845 E4.62987
G1 X153.86 Y132.782 E4.66109
G1 X153.728 Y133.71 E4.69226
G1 X153.517 Y134.624 E4.72346
G1 X153.229 Y135.517 E4.75467
G1 X152.993 Y136.103 E4.77568
G1 X152.927 Y136.254 E4.78116
G1 X152.515 Y137.096 E4.81234
G1 X152.033 Y137.901 E4.84355
G1 X151.484 Y138.661 E4.87473
G1 X150.872 Y139.372 E4.90593
G1 X150.202 Y140.028 E4.93712
G1 X149.479 Y140.625 E4.9683
G1 X148.707 Y141.158 E4.99951
G1 X147.893 Y141.623 E5.03069
G1 X147.153 Y141.971 E5.05788
G1 X146.979 Y142.045 E5.06417
G1 X145.721 Y142.492 E5.10858
G1 X144.981 Y142.704 E5.13418
G1 X143.563 Y143.094 E5.18309
G1 X141.181 Y143.822 E5.26594
G1 X138.779 Y144.631 E5.35024
G1 X136.41 Y145.503 E5.4342
G1 X134.11 Y146.426 E5.51663
G1 X131.779 Y147.438 E5.60115
G1 X129.467 Y148.521 E5.68606
G1 X127.24 Y149.642 E5.76899
G1 X125.028 Y150.834 E5.85256
G1 X122.904 Y152.056 E5.93407
G1 X122.435 Y152.333 E5.95218
G1 X121.608 Y152.775 E5.98337
G1 X120.361 Y153.284 E6.02817
G1 X120.216 Y153.333 E6.03326
G1 X119.315 Y153.595 E6.06447
G1 X118.396 Y153.78 E6.09565
G1 X117.593 Y153.875 E6.12254
G1 X117.054 Y153.918 E6.14052
G1 X115.174 Y154.044 E6.20319
G1 X112.635 Y154.288 E6.28803
G1 X110.154 Y154.597 E6.37119
G1 X107.673 Y154.977 E6.45467
G1 X105.17 Y155.434 E6.53929
G1 X104.184 Y155.638 E6.57278
G1 X103.749 Y155.72 E6.58751
G1 X102.82 Y155.854 E6.61872
G1 X101.891 Y155.909 E6.64968
G1 X101.097 Y155.922 E6.67609
G1 X89.007 Y155.923 E7.0782
G1 X88.168 Y155.912 E7.10611
G1 X87.232 Y155.858 E7.13729
G1 X86.304 Y155.725 E7.16848
G1 X85.39 Y155.513 E7.19968
G1 X84.201 Y155.108 E7.24146
G1 X84.006 Y155.029 E7.24846
G1 X83.152 Y154.64 E7.27967
G1 X82.335 Y154.18 E7.31085
G1 X81.56 Y153.652 E7.34204
G1 X80.833 Y153.06 E7.37323
G1 X80.159 Y152.408 E7.40442
G1 X79.313 Y151.403 E7.44811
G1 X78.876 Y150.814 E7.4725
G1 X77.968 Y149.557 E7.52408
G1 X76.426 Y147.547 E7.60834
G1 X74.831 Y145.583 E7.69249
G1 X73.19 Y143.677 E7.77614
G1 X71.527 Y141.852 E7.85826
G1 X69.611 Y139.883 E7.94964
G1 X69.176 Y139.427 E7.9706
G1 X68.558 Y138.721 E8.00181
G1 X68.002 Y137.965 E8.03302
G1 X67.513 Y137.165 E8.06421
G1 X67.094 Y136.326 E8.0954
G1 X66.76 Y135.49 E8.12534
G1 X66.723 Y135.385 E8.12904
G1 X66.45 Y134.488 E8.16023
G1 X66.253 Y133.571 E8.19142
G1 X66.136 Y132.64 E8.22263
G1 X66.1 Y131.943 E8.24585
G1 X66.08 Y130.915 E8.28004
G1 X66.078 Y130.701 E8.28716
G1 X66.079 Y118.849 E8.68136
G1 X66.089 Y118.151 E8.70458
G1 X66.115 Y117.532 E8.72518
G1 X66.206 Y116.247 E8.76803
G1 X66.347 Y113.761 E8.85085
G1 X66.419 Y111.203 E8.93596
G1 X66.419 Y108.715 E9.01871
G1 X66.348 Y106.199 E9.10243
G1 X66.121 Y102.53 E9.22469
G1 X66.102 Y102.065 E9.24017
G1 X66.08 Y100.935 E9.27776
G1 X66.078 Y100.721 E9.28488
G1 X66.079 Y88.803 E9.68128
G1 X66.09 Y88.121 E9.70396
G1 X66.146 Y87.184 E9.73518
G1 X66.28 Y86.256 E9.76637
G1 X66.493 Y85.343 E9.79755
G1 X66.784 Y84.451 E9.82876
G1 X67.149 Y83.587 E9.85995
G1 X67.586 Y82.758 E9.89112
G1 X67.985 Y82.124 E9.91604
G1 X68.103 Y81.95 E9.92303
G1 X68.662 Y81.197 E9.95422
G1 X69.283 Y80.494 E9.98542
G1 X69.962 Y79.847 E10.01661
M204 S2000
G0 F7500 X70.264 Y80.115
M204 S500
G1 F1500 X70.985 Y79.542 E10.04724
G1 X71.753 Y79.035 E10.07785
G1 X72.562 Y78.596 E10.10847
G1 X73.402 Y78.231 E10.13893
G1 X73.493 Y78.196 E10.14217
G1 X74.531 Y77.856 E10.1785
G1 X74.708 Y77.808 E10.1846
G1 X77.242 Y77.089 E10.27221
G1 X79.615 Y76.343 E10.35494
G1 X82.022 Y75.51 E10.43966
G1 X84.4 Y74.611 E10.52421
G1 X86.717 Y73.66 E10.60752
G1 X89.011 Y72.64 E10.69102
G1 X91.336 Y71.53 E10.77671
G1 X93.532 Y70.402 E10.85882
G1 X96.962 Y68.485 E10.98951
G1 X97.813 Y67.986 E11.02232
G1 X98.627 Y67.555 E11.05296
G1 X99.475 Y67.197 E11.08357
G1 X99.99 Y67.02 E11.10168
G1 X100.133 Y66.975 E11.10667
G1 X101.023 Y66.737 E11.13731
G1 X101.929 Y66.577 E11.16791
G1 X102.984 Y66.491 E11.20312
G1 X103.24 Y66.483 E11.21164
G1 X103.569 Y66.478 E11.22258
G1 X115.988 Y66.476 E11.63564
G1 X116.855 Y66.488 E11.66448
G1 X117.774 Y66.543 E11.6951
G1 X118.685 Y66.677 E11.72572
G1 X119.581 Y66.889 E11.75635
G1 X120.876 Y67.349 E11.80206
G1 X121.062 Y67.429 E11.80879
G1 X122.23 Y68.019 E11.85231
G1 X123.195 Y68.584 E11.88951
G1 X125.442 Y69.856 E11.97539
G1 X127.702 Y71.051 E12.06041
G1 X129.927 Y72.148 E12.14292
G1 X132.247 Y73.211 E12.2278
G1 X134.595 Y74.209 E12.31266
G1 X136.926 Y75.123 E12.39593
G1 X139.312 Y75.979 E12.48025
G1 X141.691 Y76.758 E12.56351
G1 X144.677 Y77.636 E12.66702
G1 X145.519 Y77.868 E12.69607
G1 X146.395 Y78.151 E12.72669
G1 X147.243 Y78.51 E12.75732
G1 X147.813 Y78.802 E12.77862
G1 X147.98 Y78.894 E12.78496
G1 X148.766 Y79.372 E12.81556
G1 X149.508 Y79.918 E12.8462
G1 X150.2 Y80.525 E12.87682
G1 X150.836 Y81.191 E12.90745
G1 X151.412 Y81.909 E12.93806
G1 X151.924 Y82.674 E12.96868
G1 X152.367 Y83.481 E12.9993
G1 X152.782 Y84.436 E13.03393
G1 X152.822 Y84.542 E13.0377
G1 X153.11 Y85.416 E13.06831
G1 X153.32 Y86.313 E13.09895
G1 X153.452 Y87.224 E13.12956
G1 X153.503 Y88.076 E13.15795
G1 X153.521 Y88.995 E13.18852
G1 X153.523 Y89.202 E13.19541
G1 X153.523 Y101.141 E13.5925
G1 X153.513 Y101.844 E13.61588
G1 X153.488 Y102.435 E13.63556
G1 X153.399 Y103.705 E13.6779
G1 X153.254 Y106.276 E13.76355
G1 X153.183 Y108.819 E13.84816
G1 X153.185 Y111.332 E13.93175
G1 X153.258 Y113.877 E14.01643
G1 X153.403 Y116.424 E14.10128
G1 X153.46 Y117.139 E14.12514
G1 X153.476 Y117.366 E14.13271
G1 X153.494 Y117.673 E14.14293
G1 X153.514 Y118.164 E14.15928
G1 X153.521 Y118.461 E14.16916
G1 X153.523 Y118.798 E14.18037
G1 X153.523 Y131.099 E14.5895
G1 X153.513 Y131.84 E14.61415
G1 X153.461 Y132.759 E14.64476
G1 X153.329 Y133.67 E14.67538
G1 X153.118 Y134.567 E14.70603
G1 X152.831 Y135.441 E14.73662
G1 X152.627 Y135.942 E14.75462
G1 X152.561 Y136.093 E14.7601
G1 X152.156 Y136.92 E14.79073
G1 X151.681 Y137.709 E14.82136
G1 X151.139 Y138.453 E14.85197
G1 X150.534 Y139.147 E14.88259
G1 X149.872 Y139.787 E14.91322
G1 X149.157 Y140.366 E14.94382
G1 X148.394 Y140.882 E14.97446
G1 X147.589 Y141.329 E15.00508
G1 X146.996 Y141.602 E15.02679
G1 X146.822 Y141.676 E15.03308
G1 X145.61 Y142.107 E15.07587
G1 X144.875 Y142.318 E15.1013
G1 X143.477 Y142.702 E15.14952
G1 X141.041 Y143.447 E15.23425
G1 X138.661 Y144.248 E15.31777
G1 X136.26 Y145.133 E15.40288
G1 X133.951 Y146.059 E15.48562
G1 X131.586 Y147.086 E15.57138
G1 X129.325 Y148.145 E15.65442
G1 X127.064 Y149.283 E15.73861
G1 X124.845 Y150.479 E15.82245
G1 X122.682 Y151.723 E15.90544
G1 X122.232 Y151.989 E15.92283
G1 X121.419 Y152.422 E15.95346
G1 X120.233 Y152.905 E15.99606
G1 X120.088 Y152.954 E16.00115
G1 X119.203 Y153.211 E16.0318
G1 X118.3 Y153.39 E16.06242
G1 X117.56 Y153.477 E16.0872
G1 X117.027 Y153.519 E16.10498
G1 X115.145 Y153.646 E16.16772
G1 X112.58 Y153.892 E16.25342
G1 X110.121 Y154.198 E16.33584
G1 X107.606 Y154.583 E16.42046
G1 X105.095 Y155.042 E16.50536
G1 X104.11 Y155.245 E16.53881
G1 X103.675 Y155.327 E16.55354
G1 X102.763 Y155.458 E16.58418
G1 X101.885 Y155.509 E16.61343
G1 X101.091 Y155.522 E16.63985
G1 X89.007 Y155.523 E17.04176
G1 X88.174 Y155.512 E17.06947
G1 X87.255 Y155.458 E17.10009
G1 X86.344 Y155.325 E17.13071
G1 X85.448 Y155.113 E17.16133
G1 X84.351 Y154.737 E17.1999
G1 X84.156 Y154.658 E17.2069
G1 X83.318 Y154.276 E17.23753
G1 X82.517 Y153.822 E17.26816
G1 X81.759 Y153.301 E17.29875
G1 X81.048 Y152.716 E17.32937
G1 X80.391 Y152.071 E17.35999
G1 X79.634 Y151.165 E17.39926
G1 X79.2 Y150.58 E17.42349
G1 X78.277 Y149.303 E17.47589
G1 X76.739 Y147.297 E17.55997
G1 X75.146 Y145.336 E17.644
G1 X73.505 Y143.43 E17.72765
G1 X71.811 Y141.571 E17.8113
G1 X69.9 Y139.607 E17.90245
G1 X69.465 Y139.151 E17.92341
G1 X68.859 Y138.458 E17.95402
G1 X68.316 Y137.714 E17.98466
G1 X67.839 Y136.927 E18.01527
G1 X67.432 Y136.101 E18.0459
G1 X67.138 Y135.357 E18.0725
G1 X67.101 Y135.252 E18.07621
G1 X66.833 Y134.371 E18.10683
G1 X66.642 Y133.47 E18.13747
G1 X66.53 Y132.557 E18.16806
G1 X66.5 Y131.935 E18.18877
G1 X66.48 Y130.907 E18.22297
G1 X66.478 Y130.701 E18.22982
G1 X66.479 Y118.855 E18.62382
G1 X66.489 Y118.157 E18.64704
G1 X66.514 Y117.56 E18.66691
G1 X66.603 Y116.303 E18.70883
G1 X66.747 Y113.759 E18.79358
G1 X66.819 Y111.214 E18.87826
G1 X66.819 Y108.704 E18.96174
G1 X66.748 Y106.192 E19.04532
G1 X66.52 Y102.505 E19.16819
G1 X66.502 Y102.057 E19.1831
G1 X66.48 Y100.927 E19.22069
G1 X66.478 Y100.721 E19.22754
G1 X66.479 Y88.809 E19.62374
G1 X66.49 Y88.127 E19.64642
G1 X66.545 Y87.208 E19.67704
G1 X66.68 Y86.297 E19.70768
G1 X66.892 Y85.402 E19.73827
G1 X67.182 Y84.528 E19.76889
G1 X67.547 Y83.682 E19.79954
G1 X67.983 Y82.872 E19.83014
G1 X68.316 Y82.349 E19.85076
G1 X68.434 Y82.175 E19.85775
G1 X68.983 Y81.436 E19.88837
G1 X69.595 Y80.747 E19.91902
G1 X70.264 Y80.115 E19.94963
M204 S2000
G0 F7500 X70.565 Y80.383
M204 S500
G1 F1500 X71.275 Y79.826 E19.97964
G1 X72.033 Y79.334 E20.0097
G1 X72.83 Y78.911 E20.03971
G1 X73.545 Y78.604 E20.06559
G1 X73.636 Y78.569 E20.06883
G1 X74.636 Y78.243 E20.10382
G1 X74.748 Y78.213 E20.10767
G1 X77.334 Y77.479 E20.19708
G1 X79.76 Y76.716 E20.28167
G1 X82.158 Y75.886 E20.36607
G1 X84.532 Y74.989 E20.45048
G1 X86.865 Y74.031 E20.53436
G1 X89.211 Y72.989 E20.61974
G1 X91.485 Y71.902 E20.70357
G1 X93.73 Y70.749 E20.78751
G1 X97.161 Y68.831 E20.91825
G1 X98.015 Y68.331 E20.95116
G1 X98.814 Y67.909 E20.98121
G1 X99.647 Y67.56 E21.01125
G1 X100.11 Y67.401 E21.02753
G1 X100.253 Y67.356 E21.03252
G1 X101.126 Y67.124 E21.06256
G1 X102.016 Y66.969 E21.09261
G1 X102.996 Y66.891 E21.12531
G1 X103.252 Y66.883 E21.13383
G1 X103.569 Y66.878 E21.14437
G1 X115.988 Y66.876 E21.55743
G1 X116.849 Y66.888 E21.58607
G1 X117.75 Y66.942 E21.61609
G1 X118.643 Y67.076 E21.64613
G1 X119.521 Y67.288 E21.67617
G1 X120.718 Y67.717 E21.71846
G1 X120.904 Y67.797 E21.72519
G1 X122.027 Y68.365 E21.76705
G1 X122.915 Y68.885 E21.80128
G1 X125.265 Y70.214 E21.89107
G1 X127.489 Y71.391 E21.97476
G1 X129.79 Y72.526 E22.0601
G1 X132.06 Y73.566 E22.14315
G1 X134.441 Y74.578 E22.22919
G1 X136.811 Y75.507 E22.31386
G1 X139.157 Y76.349 E22.39676
G1 X141.59 Y77.146 E22.48191
G1 X144.583 Y78.025 E22.58567
G1 X145.412 Y78.254 E22.61427
G1 X146.271 Y78.532 E22.6443
G1 X147.102 Y78.886 E22.67434
G1 X147.62 Y79.152 E22.69371
G1 X147.787 Y79.244 E22.70005
G1 X148.558 Y79.714 E22.73009
G1 X149.284 Y80.251 E22.76012
G1 X149.96 Y80.85 E22.79016
G1 X150.58 Y81.506 E22.82018
G1 X151.14 Y82.215 E22.85023
G1 X151.635 Y82.97 E22.88026
G1 X152.062 Y83.766 E22.9103
G1 X152.408 Y84.577 E22.93963
G1 X152.448 Y84.683 E22.9434
G1 X152.729 Y85.541 E22.97343
G1 X152.933 Y86.421 E23.00347
G1 X153.059 Y87.315 E23.0335
G1 X153.103 Y88.084 E23.05912
G1 X153.121 Y89.003 E23.08969
G1 X153.123 Y89.202 E23.09631
G1 X153.123 Y101.135 E23.4932
G1 X153.113 Y101.838 E23.51659
G1 X153.089 Y102.407 E23.53553
G1 X153.001 Y103.656 E23.57717
G1 X152.854 Y106.277 E23.66449
G1 X152.783 Y108.808 E23.7487
G1 X152.785 Y111.343 E23.83301
G1 X152.858 Y113.911 E23.91846
G1 X153.003 Y116.447 E24.00295
G1 X153.077 Y117.389 E24.03437
G1 X153.095 Y117.696 E24.0446
G1 X153.114 Y118.178 E24.06065
G1 X153.121 Y118.464 E24.07016
G1 X153.123 Y118.798 E24.08127
G1 X153.123 Y131.094 E24.49024
G1 X153.113 Y131.835 E24.51489
G1 X153.061 Y132.736 E24.5449
G1 X152.929 Y133.63 E24.57496
G1 X152.719 Y134.508 E24.60499
G1 X152.432 Y135.364 E24.63501
G1 X152.26 Y135.782 E24.65005
G1 X152.194 Y135.933 E24.65553
G1 X151.796 Y136.744 E24.68558
G1 X151.328 Y137.516 E24.7156
G1 X150.794 Y138.244 E24.74563
G1 X150.197 Y138.922 E24.77568
G1 X149.542 Y139.544 E24.80572
G1 X148.835 Y140.106 E24.83576
G1 X148.081 Y140.603 E24.8658
G1 X147.286 Y141.032 E24.89584
G1 X146.84 Y141.234 E24.91213
G1 X146.666 Y141.308 E24.91842
G1 X145.5 Y141.723 E24.95958
G1 X144.769 Y141.933 E24.98488
G1 X143.327 Y142.329 E25.03461
G1 X140.945 Y143.057 E25.11746
G1 X138.501 Y143.88 E25.20323
G1 X136.152 Y144.746 E25.2865
G1 X133.766 Y145.703 E25.372
G1 X131.436 Y146.715 E25.45649
G1 X129.169 Y147.776 E25.53974
G1 X126.859 Y148.939 E25.62576
G1 X124.651 Y150.129 E25.70919
G1 X122.431 Y151.406 E25.79437
G1 X122.028 Y151.644 E25.80993
G1 X121.231 Y152.069 E25.83998
G1 X120.104 Y152.526 E25.88043
G1 X119.959 Y152.575 E25.88552
G1 X119.092 Y152.826 E25.91554
G1 X118.206 Y152.999 E25.94556
G1 X117.528 Y153.078 E25.96826
G1 X117 Y153.12 E25.98588
G1 X115.081 Y153.249 E26.04985
G1 X112.594 Y153.488 E26.13295
G1 X110.047 Y153.805 E26.21832
G1 X107.517 Y154.192 E26.30344
G1 X105.021 Y154.648 E26.38784
G1 X104.224 Y154.814 E26.41491
G1 X103.6 Y154.933 E26.43604
G1 X102.706 Y155.061 E26.46608
G1 X101.878 Y155.109 E26.49367
G1 X101.084 Y155.122 E26.52008
G1 X89.007 Y155.123 E26.92176
G1 X88.18 Y155.112 E26.94927
G1 X87.279 Y155.059 E26.97929
G1 X86.385 Y154.926 E27.00935
G1 X85.507 Y154.714 E27.03939
G1 X84.501 Y154.367 E27.07479
G1 X84.306 Y154.288 E27.08178
G1 X83.485 Y153.912 E27.11182
G1 X82.7 Y153.465 E27.14186
G1 X81.958 Y152.95 E27.1719
G1 X81.264 Y152.372 E27.20194
G1 X80.625 Y151.735 E27.23195
G1 X79.955 Y150.926 E27.26689
G1 X79.524 Y150.345 E27.29095
G1 X78.603 Y149.07 E27.34326
G1 X77.065 Y147.064 E27.42734
G1 X75.443 Y145.069 E27.51285
