;FLAVOR:Marlin
;TIME:10717
;Filament used: 6.72019m
;Layer height: 0.2
;MINX:52.626
;MINY:60.226
;MINZ:0.2
;MAXX:167.373
;MAXY:159.772
;MAXZ:8
;Generated with Creality Slicer 4.8.2-252
M140 S60
M105
M190 S60
M104 S200
M105
M109 S200
M82 ;absolute extrusion mode

G28 ;Home

G92 E0 ;Reset Extruder
G1 Z2.0 F3000 ;Move Z Axis up
G1 X10.1 Y20 Z0.28 F5000.0 ;Move to start position
G1 X10.1 Y200.0 Z0.28 F1500.0 E15 ;Draw the first line
G1 X10.4 Y200.0 Z0.28 F5000.0 ;Move to side a little
G1 X10.4 Y20 Z0.28 F1500.0 E30 ;Draw the second line
G92 E0 ;Reset Extruder
G1 Z2.0 F3000 ;Move Z Axis up

G92 E0
G92 E0
G1 F2400 E-0.8
;LAYER_COUNT:40
;LAYER:0
M107
M204 S2000
G0 F7500 X76.414 Y65.916 Z0.2
M204 S500
;TYPE:SKIRT
G1 F2400 E0
G1 F1500 X77.06 Y65.236 E0.0312
G1 X77.761 Y64.613 E0.06239
G1 X78.513 Y64.053 E0.09357
G1 X79.31 Y63.558 E0.12478
G1 X80.146 Y63.134 E0.15596
G1 X81.058 Y62.766 E0.18866
G1 X81.223 Y62.708 E0.19448
G1 X82.12 Y62.435 E0.22567
G1 X83.038 Y62.24 E0.25688
G1 X84.029 Y62.118 E0.29009
G1 X84.69 Y62.067 E0.31214
G1 X87.24 Y61.836 E0.3973
G1 X89.744 Y61.539 E0.48117
G1 X92.189 Y61.177 E0.56338
G1 X96.005 Y60.478 E0.69241
G1 X96.103 Y60.458 E0.69574
G1 X97.03 Y60.31 E0.72696
G1 X97.891 Y60.244 E0.75568
G1 X98.136 Y60.235 E0.76383
G1 X98.453 Y60.228 E0.77438
G1 X98.707 Y60.226 E0.78283
G1 X120.993 Y60.226 E1.52406
G1 X121.85 Y60.237 E1.55257
G1 X122.786 Y60.29 E1.58375
G1 X123.699 Y60.42 E1.61442
G1 X124.787 Y60.622 E1.65123
G1 X127.272 Y61.047 E1.73508
G1 X129.767 Y61.402 E1.8189
G1 X132.3 Y61.69 E1.90369
G1 X134.761 Y61.899 E1.98584
G1 X137.412 Y62.049 E2.07415
G1 X138.695 Y62.103 E2.11686
G1 X141.342 Y62.178 E2.20494
G1 X143.801 Y62.178 E2.28672
G1 X145.04 Y62.137 E2.32796
G1 X147.809 Y62.081 E2.42007
G1 X148.198 Y62.08 E2.43301
G1 X148.725 Y62.088 E2.45054
G1 X149.661 Y62.142 E2.48172
G1 X150.59 Y62.276 E2.51294
G1 X151.503 Y62.489 E2.54412
G1 X152.395 Y62.778 E2.57531
G1 X153.601 Y63.311 E2.61917
G1 X153.758 Y63.392 E2.62504
G1 X154.573 Y63.858 E2.65627
G1 X155.345 Y64.39 E2.68745
G1 X156.068 Y64.987 E2.71864
G1 X156.738 Y65.643 E2.74982
G1 X157.35 Y66.354 E2.78102
G1 X157.899 Y67.114 E2.81221
G1 X158.382 Y67.919 E2.84343
G1 X158.794 Y68.761 E2.87461
G1 X159.132 Y69.636 E2.90581
G1 X159.406 Y70.578 E2.93844
G1 X159.484 Y70.9 E2.94946
G1 X159.614 Y71.514 E2.97033
G1 X160.097 Y74.161 E3.05982
G1 X160.613 Y76.597 E3.14264
G1 X161.203 Y79.04 E3.22623
G1 X161.87 Y81.495 E3.31085
G1 X162.597 Y83.899 E3.39438
G1 X163.392 Y86.282 E3.47794
G1 X164.243 Y88.613 E3.56047
G1 X165.188 Y90.99 E3.64555
G1 X166.307 Y93.564 E3.7389
G1 X166.41 Y93.805 E3.74762
G1 X166.683 Y94.51 E3.77276
G1 X166.753 Y94.711 E3.77984
G1 X167.023 Y95.609 E3.81103
G1 X167.216 Y96.527 E3.84223
G1 X167.33 Y97.458 E3.87343
G1 X167.36 Y97.996 E3.89135
G1 X167.368 Y98.331 E3.90249
G1 X167.373 Y98.8 E3.91809
G1 X167.372 Y121.149 E4.66142
G1 X167.361 Y121.868 E4.68534
G1 X167.306 Y122.805 E4.71656
G1 X167.173 Y123.733 E4.74774
G1 X166.96 Y124.646 E4.77892
G1 X166.756 Y125.301 E4.80174
G1 X166.712 Y125.428 E4.80621
G1 X166.417 Y126.186 E4.83326
G1 X165.912 Y127.354 E4.87559
G1 X165.674 Y127.887 E4.895
G1 X164.694 Y130.256 E4.98027
G1 X163.79 Y132.624 E5.06457
G1 X162.989 Y134.929 E5.14574
G1 X162.208 Y137.389 E5.23158
G1 X161.519 Y139.791 E5.31469
G1 X160.896 Y142.226 E5.39829
G1 X160.344 Y144.664 E5.48143
G1 X159.857 Y147.142 E5.56543
G1 X159.743 Y147.812 E5.58803
G1 X159.575 Y148.717 E5.61864
G1 X159.364 Y149.631 E5.64984
G1 X159.075 Y150.523 E5.68103
G1 X158.712 Y151.388 E5.71223
G1 X158.276 Y152.218 E5.74341
G1 X157.907 Y152.812 E5.76667
G1 X157.788 Y152.99 E5.77379
G1 X157.234 Y153.746 E5.80497
G1 X156.617 Y154.453 E5.83618
G1 X155.943 Y155.105 E5.86737
G1 X155.215 Y155.697 E5.89858
G1 X154.44 Y156.225 E5.92977
G1 X153.623 Y156.684 E5.96093
G1 X152.769 Y157.073 E5.99215
G1 X151.885 Y157.387 E6.02335
G1 X150.978 Y157.625 E6.05454
G1 X150.465 Y157.724 E6.07191
G1 X150.209 Y157.767 E6.08055
G1 X149.278 Y157.883 E6.11175
G1 X148.518 Y157.918 E6.13706
G1 X148.05 Y157.923 E6.15262
G1 X140.878 Y157.923 E6.39116
G1 X138.27 Y157.96 E6.47792
G1 X135.748 Y158.067 E6.56187
G1 X133.253 Y158.244 E6.64507
G1 X130.755 Y158.492 E6.72856
G1 X128.266 Y158.81 E6.81202
G1 X125.75 Y159.206 E6.89673
G1 X124.053 Y159.519 E6.95412
G1 X123.595 Y159.597 E6.96958
G1 X122.664 Y159.713 E7.00078
G1 X122.003 Y159.747 E7.02279
G1 X120.899 Y159.77 E7.05952
G1 X120.67 Y159.772 E7.06714
G1 X98.808 Y159.771 E7.79427
G1 X98.101 Y159.76 E7.81779
G1 X97.165 Y159.705 E7.84897
G1 X96.269 Y159.577 E7.87908
G1 X95.538 Y159.442 E7.9038
G1 X92.958 Y158.999 E7.99087
G1 X90.438 Y158.641 E8.07553
G1 X87.982 Y158.361 E8.15774
G1 X85.428 Y158.145 E8.24299
G1 X83.002 Y158.007 E8.32381
G1 X79.028 Y157.923 E8.45602
G1 X71.973 Y157.922 E8.69067
G1 X71.293 Y157.912 E8.71329
G1 X70.357 Y157.858 E8.74447
G1 X69.429 Y157.725 E8.77565
G1 X68.515 Y157.513 E8.80686
G1 X67.623 Y157.224 E8.83804
G1 X66.758 Y156.86 E8.86926
G1 X66.2 Y156.576 E8.89008
G1 X66.029 Y156.483 E8.89656
G1 X65.224 Y156.001 E8.92776
G1 X64.464 Y155.451 E8.95897
G1 X63.754 Y154.839 E8.99014
G1 X63.098 Y154.168 E9.02135
G1 X62.502 Y153.444 E9.05254
G1 X61.97 Y152.672 E9.08373
G1 X61.505 Y151.857 E9.11494
G1 X61.112 Y151.006 E9.14611
G1 X60.848 Y150.299 E9.17121
G1 X60.795 Y150.14 E9.17679
G1 X60.537 Y149.238 E9.20799
G1 X60.401 Y148.587 E9.23011
G1 X60.215 Y147.54 E9.26548
G1 X59.723 Y144.984 E9.35205
G1 X59.18 Y142.534 E9.43552
G1 X58.572 Y140.116 E9.51844
G1 X57.886 Y137.684 E9.60249
G1 X57.123 Y135.243 E9.68755
G1 X56.319 Y132.905 E9.76978
G1 X55.435 Y130.554 E9.85332
G1 X54.176 Y127.506 E9.96301
G1 X53.547 Y126.06 E10.01545
G1 X53.21 Y125.185 E10.04664
G1 X52.949 Y124.284 E10.07784
G1 X52.766 Y123.365 E10.10901
G1 X52.641 Y122.051 E10.15291
G1 X52.629 Y121.6 E10.16791
G1 X52.626 Y121.274 E10.17876
G1 X52.627 Y98.829 E10.92528
G1 X52.637 Y98.157 E10.94763
G1 X52.691 Y97.221 E10.97882
G1 X52.825 Y96.293 E11.01
G1 X53.037 Y95.379 E11.04121
G1 X53.326 Y94.487 E11.0724
G1 X53.71 Y93.58 E11.10515
G1 X53.806 Y93.379 E11.11256
G1 X54.246 Y92.551 E11.14375
G1 X54.755 Y91.763 E11.17495
G1 X55.329 Y91.022 E11.20613
G1 X55.964 Y90.332 E11.23731
G1 X56.458 Y89.869 E11.25983
G1 X57.482 Y88.966 E11.30524
G1 X59.414 Y87.212 E11.39203
G1 X61.225 Y85.473 E11.47554
G1 X63.002 Y83.666 E11.55983
G1 X64.712 Y81.827 E11.64336
G1 X66.364 Y79.944 E11.72667
G1 X67.972 Y78.005 E11.81045
G1 X69.534 Y76.007 E11.8948
G1 X71.03 Y73.98 E11.9786
G1 X72.464 Y71.917 E12.06216
G1 X73.857 Y69.786 E12.14684
G1 X74.722 Y68.391 E12.20143
G1 X75.307 Y67.429 E12.23888
G1 X75.828 Y66.649 E12.27008
G1 X76.414 Y65.916 E12.30129
M204 S2000
G0 F7500 X76.738 Y66.154
M204 S500
G1 F1500 X77.374 Y65.488 E12.33192
G1 X78.066 Y64.881 E12.36253
G1 X78.808 Y64.336 E12.39316
G1 X79.595 Y63.858 E12.42378
G1 X80.42 Y63.449 E12.45441
G1 X81.191 Y63.144 E12.48198
G1 X81.356 Y63.086 E12.4878
G1 X82.237 Y62.819 E12.51842
G1 X83.138 Y62.629 E12.54905
G1 X84.059 Y62.517 E12.5799
G1 X84.686 Y62.469 E12.60082
G1 X87.287 Y62.233 E12.68768
G1 X89.818 Y61.932 E12.77246
G1 X92.259 Y61.572 E12.85453
G1 X96.059 Y60.875 E12.98302
G1 X96.183 Y60.85 E12.98723
G1 X97.092 Y60.705 E13.01785
G1 X97.906 Y60.644 E13.045
G1 X98.151 Y60.635 E13.05315
G1 X98.457 Y60.628 E13.06333
G1 X98.711 Y60.626 E13.07178
G1 X120.993 Y60.626 E13.81288
G1 X121.844 Y60.637 E13.84119
G1 X122.764 Y60.69 E13.87184
G1 X123.626 Y60.814 E13.9008
G1 X124.643 Y61.003 E13.93521
G1 X127.22 Y61.444 E14.02216
G1 X129.737 Y61.802 E14.10672
G1 X132.219 Y62.084 E14.18981
G1 X134.775 Y62.302 E14.27513
G1 X137.375 Y62.448 E14.36174
G1 X138.666 Y62.503 E14.40472
G1 X141.331 Y62.578 E14.49339
G1 X143.815 Y62.578 E14.57601
G1 X145.048 Y62.537 E14.61704
G1 X147.817 Y62.481 E14.70916
G1 X148.192 Y62.48 E14.72163
G1 X148.719 Y62.488 E14.73916
G1 X149.638 Y62.542 E14.76978
G1 X150.549 Y62.676 E14.80041
G1 X151.445 Y62.888 E14.83103
G1 X152.319 Y63.177 E14.86165
G1 X153.418 Y63.667 E14.90167
G1 X153.575 Y63.748 E14.90754
G1 X154.374 Y64.205 E14.93816
G1 X155.131 Y64.73 E14.9688
G1 X155.839 Y65.318 E14.99941
G1 X156.493 Y65.966 E15.03003
G1 X157.088 Y66.668 E15.06064
G1 X157.621 Y67.419 E15.09127
G1 X158.086 Y68.214 E15.1219
G1 X158.481 Y69.046 E15.15253
G1 X158.801 Y69.909 E15.18315
G1 X159.017 Y70.672 E15.20952
G1 X159.095 Y70.994 E15.22054
G1 X159.221 Y71.586 E15.24067
G1 X159.706 Y74.244 E15.33054
G1 X160.227 Y76.702 E15.41411
G1 X160.812 Y79.124 E15.49698
G1 X161.487 Y81.609 E15.58263
G1 X162.214 Y84.014 E15.66619
G1 X163.01 Y86.398 E15.74979
G1 X163.883 Y88.792 E15.83454
G1 X164.814 Y91.133 E15.91833
G1 X165.939 Y93.721 E16.01219
G1 X166.042 Y93.962 E16.02091
G1 X166.305 Y94.642 E16.04516
G1 X166.375 Y94.843 E16.05224
G1 X166.64 Y95.725 E16.08287
G1 X166.827 Y96.626 E16.11347
G1 X166.936 Y97.54 E16.14409
G1 X166.96 Y98.008 E16.15968
G1 X166.968 Y98.336 E16.17059
G1 X166.973 Y98.8 E16.18602
G1 X166.972 Y121.143 E16.92915
G1 X166.961 Y121.862 E16.95307
G1 X166.907 Y122.781 E16.98369
G1 X166.773 Y123.692 E17.01431
G1 X166.561 Y124.588 E17.04494
G1 X166.378 Y125.17 E17.06523
G1 X166.334 Y125.297 E17.0697
G1 X166.05 Y126.027 E17.09575
G1 X165.547 Y127.191 E17.13793
G1 X165.297 Y127.749 E17.15826
G1 X164.326 Y130.097 E17.24277
G1 X163.414 Y132.487 E17.32786
G1 X162.601 Y134.826 E17.41022
G1 X161.835 Y137.24 E17.49445
G1 X161.136 Y139.678 E17.57881
G1 X160.505 Y142.144 E17.66347
G1 X159.954 Y144.577 E17.74644
G1 X159.456 Y147.105 E17.83214
G1 X159.317 Y147.921 E17.85967
G1 X159.182 Y148.644 E17.88413
G1 X158.974 Y149.54 E17.91473
G1 X158.689 Y150.416 E17.94536
G1 X158.329 Y151.263 E17.97598
G1 X157.896 Y152.076 E18.00661
G1 X157.574 Y152.589 E18.02676
G1 X157.455 Y152.767 E18.03388
G1 X156.911 Y153.51 E18.06451
G1 X156.304 Y154.202 E18.09512
G1 X155.639 Y154.839 E18.12575
G1 X154.922 Y155.416 E18.15636
G1 X154.157 Y155.929 E18.187
G1 X153.351 Y156.373 E18.2176
G1 X152.509 Y156.746 E18.24823
G1 X151.638 Y157.044 E18.27885
G1 X150.399 Y157.33 E18.32114
G1 X150.143 Y157.373 E18.32978
G1 X149.229 Y157.485 E18.3604
G1 X148.513 Y157.518 E18.38424
G1 X148.05 Y157.523 E18.39964
G1 X140.872 Y157.523 E18.63839
G1 X138.247 Y157.56 E18.7257
G1 X135.739 Y157.667 E18.80919
G1 X133.222 Y157.845 E18.89312
G1 X130.698 Y158.095 E18.97748
G1 X128.19 Y158.416 E19.06158
G1 X125.723 Y158.804 E19.14464
G1 X123.98 Y159.126 E19.20359
G1 X123.529 Y159.203 E19.21881
G1 X122.615 Y159.316 E19.24944
G1 X121.995 Y159.347 E19.27009
G1 X120.891 Y159.37 E19.30681
G1 X120.67 Y159.372 E19.31416
G1 X98.814 Y159.371 E20.0411
G1 X98.107 Y159.36 E20.06461
G1 X97.188 Y159.305 E20.09524
G1 X96.341 Y159.184 E20.12369
G1 X95.587 Y159.044 E20.1492
G1 X93.016 Y158.604 E20.23595
G1 X90.503 Y158.246 E20.32038
G1 X87.99 Y157.96 E20.4045
G1 X85.486 Y157.748 E20.48808
G1 X83.005 Y157.607 E20.57074
G1 X79.036 Y157.523 E20.70278
G1 X71.979 Y157.522 E20.93749
G1 X71.299 Y157.512 E20.96011
G1 X70.38 Y157.458 E20.99073
G1 X69.469 Y157.325 E21.02135
G1 X68.573 Y157.114 E21.05197
G1 X67.699 Y156.825 E21.08259
G1 X66.853 Y156.462 E21.1132
G1 X66.391 Y156.225 E21.13047
G1 X66.22 Y156.132 E21.13695
G1 X65.431 Y155.657 E21.16758
G1 X64.686 Y155.116 E21.1982
G1 X63.991 Y154.512 E21.22883
G1 X63.351 Y153.85 E21.25945
G1 X62.771 Y153.136 E21.29005
G1 X62.255 Y152.373 E21.32068
G1 X61.807 Y151.569 E21.3513
G1 X61.431 Y150.728 E21.38194
G1 X61.228 Y150.172 E21.40162
G1 X61.175 Y150.013 E21.4072
G1 X60.922 Y149.128 E21.43781
G1 X60.795 Y148.517 E21.45857
G1 X60.598 Y147.412 E21.4959
G1 X60.12 Y144.928 E21.58003
G1 X59.572 Y142.456 E21.66425
G1 X58.947 Y139.974 E21.74938
G1 X58.27 Y137.571 E21.83241
G1 X57.507 Y135.131 E21.91744
G1 X56.695 Y132.77 E22.00049
G1 X55.799 Y130.387 E22.08516
G1 X54.553 Y127.371 E22.1937
G1 X53.914 Y125.901 E22.24701
G1 X53.584 Y125.042 E22.27762
G1 X53.33 Y124.157 E22.30824
G1 X53.153 Y123.253 E22.33888
G1 X53.041 Y122.037 E22.37949
G1 X53.029 Y121.597 E22.39413
G1 X53.026 Y121.271 E22.40498
G1 X53.027 Y98.835 E23.1512
G1 X53.037 Y98.163 E23.17355
G1 X53.091 Y97.244 E23.20417
G1 X53.224 Y96.333 E23.23479
G1 X53.436 Y95.437 E23.26542
G1 X53.725 Y94.563 E23.29604
G1 X54.071 Y93.753 E23.32533
G1 X54.167 Y93.552 E23.33274
G1 X54.599 Y92.739 E23.36336
G1 X55.101 Y91.967 E23.39399
G1 X55.667 Y91.241 E23.42461
G1 X56.295 Y90.567 E23.45525
G1 X56.722 Y90.169 E23.47466
G1 X57.767 Y89.248 E23.52099
G1 X59.677 Y87.514 E23.60679
G1 X61.522 Y85.742 E23.69188
G1 X63.28 Y83.954 E23.77527
G1 X65.022 Y82.081 E23.86035
G1 X66.657 Y80.217 E23.94282
G1 X68.293 Y78.244 E24.02806
G1 X69.843 Y76.263 E24.11172
G1 X71.348 Y74.223 E24.19604
G1 X72.789 Y72.15 E24.28001
G1 X74.211 Y69.974 E24.36647
G1 X75.064 Y68.598 E24.42032
G1 X75.649 Y67.636 E24.45776
G1 X76.161 Y66.871 E24.48838
G1 X76.738 Y66.154 E24.51899
M204 S2000
G0 F7500 X77.061 Y66.391
M204 S500
G1 F1500 X77.688 Y65.742 E24.549
G1 X78.371 Y65.15 E24.57907
G1 X79.103 Y64.621 E24.60911
G1 X79.878 Y64.159 E24.63911
G1 X80.692 Y63.767 E24.66916
G1 X81.323 Y63.521 E24.69169
G1 X81.488 Y63.463 E24.69751
G1 X82.353 Y63.202 E24.72756
G1 X83.237 Y63.018 E24.75759
G1 X84.09 Y62.916 E24.78616
G1 X84.751 Y62.865 E24.80821
G1 X87.299 Y62.635 E24.8933
G1 X89.852 Y62.331 E24.97882
G1 X92.338 Y61.964 E25.0624
G1 X96.153 Y61.264 E25.1914
G1 X96.263 Y61.242 E25.19514
G1 X97.155 Y61.101 E25.22517
G1 X97.921 Y61.044 E25.25072
G1 X98.166 Y61.035 E25.25887
G1 X98.46 Y61.028 E25.26866
G1 X98.714 Y61.026 E25.2771
G1 X120.993 Y61.026 E26.01811
G1 X121.839 Y61.037 E26.04625
G1 X122.74 Y61.09 E26.07627
G1 X123.553 Y61.207 E26.10358
G1 X124.58 Y61.397 E26.13832
G1 X127.167 Y61.84 E26.22562
G1 X129.667 Y62.196 E26.30961
G1 X132.212 Y62.485 E26.3948
G1 X134.72 Y62.699 E26.47852
G1 X137.333 Y62.846 E26.56556
G1 X138.71 Y62.904 E26.6114
G1 X141.319 Y62.978 E26.69822
G1 X143.829 Y62.978 E26.7817
G1 X145.056 Y62.937 E26.82253
G1 X147.825 Y62.881 E26.91465
G1 X148.186 Y62.88 E26.92665
G1 X148.713 Y62.888 E26.94418
G1 X149.614 Y62.942 E26.97421
G1 X150.508 Y63.075 E27.00427
G1 X151.386 Y63.287 E27.03431
G1 X152.241 Y63.575 E27.06432
G1 X153.235 Y64.022 E27.10057
G1 X153.392 Y64.103 E27.10644
G1 X154.175 Y64.553 E27.13648
G1 X154.916 Y65.069 E27.16651
G1 X155.608 Y65.649 E27.19654
G1 X156.246 Y66.289 E27.2266
G1 X156.825 Y66.982 E27.25663
G1 X157.34 Y67.723 E27.28665
G1 X157.788 Y68.508 E27.31671
G1 X158.165 Y69.328 E27.34673
G1 X158.467 Y70.179 E27.37676
G1 X158.628 Y70.767 E27.39704
G1 X158.706 Y71.089 E27.40806
G1 X158.827 Y71.658 E27.42741
G1 X159.307 Y74.286 E27.51626
G1 X159.835 Y76.781 E27.60108
G1 X160.432 Y79.251 E27.6856
G1 X161.104 Y81.725 E27.77087
G1 X161.829 Y84.124 E27.85422
G1 X162.63 Y86.524 E27.93837
G1 X163.512 Y88.941 E28.02395
G1 X164.434 Y91.259 E28.10692
G1 X165.571 Y93.878 E28.20188
G1 X165.674 Y94.119 E28.2106
G1 X165.928 Y94.773 E28.23394
G1 X165.998 Y94.974 E28.24102
G1 X166.257 Y95.84 E28.27108
G1 X166.438 Y96.724 E28.30109
G1 X166.56 Y98.02 E28.34439
G1 X166.568 Y98.341 E28.35507
G1 X166.573 Y98.8 E28.37033
G1 X166.572 Y121.137 E29.11327
G1 X166.561 Y121.856 E29.13718
G1 X166.507 Y122.758 E29.16724
G1 X166.374 Y123.651 E29.19727
G1 X166.162 Y124.529 E29.22731
G1 X166 Y125.039 E29.24511
G1 X165.956 Y125.166 E29.24958
G1 X165.683 Y125.869 E29.27466
G1 X165.182 Y127.027 E29.31662
G1 X164.926 Y127.599 E29.33747
G1 X163.967 Y129.919 E29.42096
G1 X163.043 Y132.339 E29.50712
G1 X162.215 Y134.722 E29.59103
G1 X161.445 Y137.146 E29.67562
G1 X160.749 Y139.574 E29.75963
G1 X160.121 Y142.029 E29.84391
G1 X159.557 Y144.517 E29.92876
G1 X159.068 Y147.003 E30.01303
G1 X158.924 Y147.847 E30.04151
G1 X158.789 Y148.57 E30.06597
G1 X158.584 Y149.45 E30.09602
G1 X158.302 Y150.308 E30.12606
G1 X157.945 Y151.137 E30.15608
G1 X157.517 Y151.932 E30.18611
G1 X157.242 Y152.367 E30.20323
G1 X157.123 Y152.545 E30.21035
G1 X156.588 Y153.273 E30.2404
G1 X155.991 Y153.95 E30.27042
G1 X155.336 Y154.573 E30.30049
G1 X154.629 Y155.135 E30.33053
G1 X153.875 Y155.632 E30.36056
G1 X153.08 Y156.06 E30.39059
G1 X152.251 Y156.417 E30.42061
G1 X151.393 Y156.698 E30.45064
G1 X150.333 Y156.935 E30.48677
G1 X150.077 Y156.978 E30.4954
G1 X149.18 Y157.088 E30.52546
