;FLAVOR:Marlin
;TIME:608
;Filament used: 0.383852m
;Layer height: 0.2
;MINX:92.826
;MINY:87.078
;MINZ:0.2
;MAXX:127.173
;MAXY:132.922
;MAXZ:8
;Generated with Creality Slicer 4.8.2-252
M140 S60
M105
M190 S60
M104 S200
M105
M109 S200
M82 ;absolute extrusion mode

G28 ;Home

G92 E0 ;Reset Extruder
G1 Z2.0 F3000 ;Move Z Axis up
G1 X10.1 Y20 Z0.28 F5000.0 ;Move to start position
G1 X10.1 Y200.0 Z0.28 F1500.0 E15 ;Draw the first line
G1 X10.4 Y200.0 Z0.28 F5000.0 ;Move to side a little
G1 X10.4 Y20 Z0.28 F1500.0 E30 ;Draw the second line
G92 E0 ;Reset Extruder
G1 Z2.0 F3000 ;Move Z Axis up

G92 E0
G92 E0
G1 F2400 E-0.8
;LAYER_COUNT:40
;LAYER:0
M107
M204 S2000
G0 F7500 X96.089 Y90.413 Z0.2
M204 S500
;TYPE:SKIRT
G1 F2400 E0
G1 F1500 X96.776 Y89.774 E0.03121
G1 X97.514 Y89.195 E0.0624
G1 X98.299 Y88.682 E0.09359
G1 X99.125 Y88.237 E0.1248
G1 X99.985 Y87.865 E0.15597
G1 X100.875 Y87.567 E0.18718
G1 X101.602 Y87.383 E0.21213
G1 X101.843 Y87.331 E0.22033
G1 X102.767 Y87.173 E0.2515
G1 X104.034 Y87.085 E0.29375
G1 X104.633 Y87.078 E0.31367
G1 X104.917 Y87.078 E0.32312
G1 X105.627 Y87.088 E0.34673
G1 X105.931 Y87.097 E0.35685
G1 X106.171 Y87.107 E0.36484
G1 X108.812 Y87.18 E0.45271
G1 X111.288 Y87.178 E0.53506
G1 X112.716 Y87.131 E0.58258
G1 X115.192 Y87.082 E0.66495
G1 X115.593 Y87.082 E0.67829
G1 X116.134 Y87.091 E0.69629
G1 X117.07 Y87.146 E0.72747
G1 X117.998 Y87.281 E0.75866
G1 X118.911 Y87.495 E0.78985
G1 X119.803 Y87.786 E0.82106
G1 X120.667 Y88.151 E0.85225
G1 X121.496 Y88.589 E0.88344
G1 X122.101 Y88.969 E0.9072
G1 X122.276 Y89.087 E0.91422
G1 X123.03 Y89.644 E0.9454
G1 X123.735 Y90.263 E0.9766
G1 X124.384 Y90.94 E1.0078
G1 X124.973 Y91.67 E1.03899
G1 X125.497 Y92.447 E1.07016
G1 X125.954 Y93.266 E1.10136
G1 X126.339 Y94.121 E1.13255
G1 X126.65 Y95.006 E1.16375
G1 X126.963 Y96.32 E1.20867
G1 X127.006 Y96.567 E1.21701
G1 X127.127 Y97.497 E1.2482
G1 X127.168 Y98.315 E1.27545
G1 X127.173 Y98.77 E1.29058
G1 X127.172 Y121.136 E2.03448
G1 X127.161 Y121.866 E2.05876
G1 X127.107 Y122.802 E2.08994
G1 X126.973 Y123.73 E2.12113
G1 X126.761 Y124.644 E2.15233
G1 X126.572 Y125.255 E2.17361
G1 X126.53 Y125.378 E2.17793
G1 X126.189 Y126.251 E2.2091
G1 X125.775 Y127.093 E2.24031
G1 X125.291 Y127.896 E2.27149
G1 X124.741 Y128.656 E2.3027
G1 X124.127 Y129.365 E2.33389
G1 X123.456 Y130.02 E2.36508
G1 X122.731 Y130.615 E2.39627
G1 X121.958 Y131.146 E2.42746
G1 X121.446 Y131.448 E2.44724
G1 X121.296 Y131.531 E2.45294
G1 X120.456 Y131.949 E2.48414
G1 X119.585 Y132.295 E2.51532
G1 X118.687 Y132.565 E2.5465
G1 X117.769 Y132.758 E2.5777
G1 X116.838 Y132.872 E2.6089
G1 X116.167 Y132.904 E2.63124
G1 X115.077 Y132.922 E2.6675
G1 X104.601 Y132.922 E3.01593
G1 X103.912 Y132.912 E3.03885
G1 X102.976 Y132.858 E3.07004
G1 X102.048 Y132.725 E3.10122
G1 X101.134 Y132.513 E3.13242
G1 X99.987 Y132.126 E3.17269
G1 X99.827 Y132.062 E3.17842
G1 X98.972 Y131.677 E3.20961
G1 X98.152 Y131.221 E3.24081
G1 X97.375 Y130.696 E3.272
G1 X96.645 Y130.107 E3.3032
G1 X95.968 Y129.458 E3.33439
G1 X95.349 Y128.753 E3.3656
G1 X94.792 Y127.999 E3.39677
G1 X94.301 Y127.2 E3.42797
G1 X93.88 Y126.362 E3.45916
G1 X93.532 Y125.491 E3.49035
G1 X93.186 Y124.288 E3.53199
G1 X93.103 Y123.923 E3.54444
G1 X92.934 Y123.001 E3.57561
G1 X92.844 Y122.067 E3.60682
G1 X92.829 Y121.577 E3.62313
G1 X92.826 Y121.221 E3.63497
G1 X92.827 Y98.8 E4.3807
G1 X92.837 Y98.151 E4.40228
G1 X92.892 Y97.214 E4.4335
G1 X93.026 Y96.286 E4.46469
G1 X93.238 Y95.373 E4.49586
G1 X93.528 Y94.48 E4.52709
G1 X93.871 Y93.662 E4.55659
G1 X93.957 Y93.478 E4.56335
G1 X94.39 Y92.646 E4.59454
G1 X94.892 Y91.854 E4.62573
G1 X95.46 Y91.108 E4.65692
G1 X96.089 Y90.413 E4.68809
M204 S2000
G0 F7500 X96.422 Y90.646
M204 S500
G1 F1500 X97.1 Y90.023 E4.71872
G1 X97.83 Y89.462 E4.74934
G1 X98.605 Y88.966 E4.77994
G1 X99.421 Y88.539 E4.81057
G1 X100.271 Y88.185 E4.8412
G1 X101.148 Y87.905 E4.87182
G1 X101.686 Y87.774 E4.89024
G1 X101.927 Y87.722 E4.89844
G1 X102.835 Y87.568 E4.92907
G1 X104.039 Y87.485 E4.96921
G1 X104.638 Y87.478 E4.98913
G1 X104.911 Y87.478 E4.99821
G1 X105.621 Y87.488 E5.02183
G1 X105.915 Y87.496 E5.03161
G1 X106.215 Y87.509 E5.0416
G1 X108.801 Y87.58 E5.12764
G1 X111.301 Y87.578 E5.21079
G1 X112.724 Y87.531 E5.25815
G1 X115.2 Y87.482 E5.34052
G1 X115.586 Y87.481 E5.35335
G1 X116.127 Y87.49 E5.37135
G1 X117.046 Y87.546 E5.40197
G1 X117.957 Y87.681 E5.4326
G1 X118.853 Y87.894 E5.46324
G1 X119.726 Y88.184 E5.49383
G1 X120.572 Y88.549 E5.52448
G1 X121.382 Y88.986 E5.55509
G1 X121.877 Y89.3 E5.57459
G1 X122.052 Y89.418 E5.58161
G1 X122.792 Y89.966 E5.61223
G1 X123.482 Y90.575 E5.64284
G1 X124.117 Y91.242 E5.67347
G1 X124.691 Y91.962 E5.7041
G1 X125.201 Y92.729 E5.73473
G1 X125.642 Y93.537 E5.76535
G1 X126.011 Y94.38 E5.79596
G1 X126.306 Y95.252 E5.82657
G1 X126.569 Y96.389 E5.86539
G1 X126.612 Y96.636 E5.87373
G1 X126.73 Y97.549 E5.90435
G1 X126.768 Y98.32 E5.93002
G1 X126.773 Y98.77 E5.94499
G1 X126.772 Y121.13 E6.68869
G1 X126.761 Y121.86 E6.71297
G1 X126.707 Y122.779 E6.74359
G1 X126.574 Y123.69 E6.77421
G1 X126.362 Y124.586 E6.80483
G1 X126.193 Y125.125 E6.82362
G1 X126.151 Y125.248 E6.82794
G1 X125.816 Y126.106 E6.85858
G1 X125.408 Y126.931 E6.88919
G1 X124.93 Y127.718 E6.91982
G1 X124.385 Y128.46 E6.95044
G1 X123.778 Y129.152 E6.98105
G1 X123.113 Y129.789 E7.01168
G1 X122.396 Y130.366 E7.04229
G1 X121.252 Y131.098 E7.08746
G1 X121.102 Y131.181 E7.09317
G1 X120.278 Y131.591 E7.12378
G1 X119.421 Y131.928 E7.15441
G1 X118.539 Y132.19 E7.18501
G1 X117.637 Y132.374 E7.21563
G1 X116.722 Y132.479 E7.24626
G1 X116.16 Y132.504 E7.26497
G1 X115.077 Y132.522 E7.301
G1 X104.607 Y132.522 E7.64923
G1 X103.918 Y132.512 E7.67215
G1 X102.999 Y132.459 E7.70276
G1 X102.088 Y132.326 E7.73339
G1 X101.192 Y132.114 E7.76401
G1 X100.135 Y131.755 E7.80114
G1 X99.975 Y131.691 E7.80687
G1 X99.136 Y131.312 E7.83749
G1 X98.333 Y130.862 E7.86811
G1 X97.572 Y130.344 E7.89872
G1 X96.859 Y129.762 E7.92934
G1 X96.199 Y129.12 E7.95996
G1 X95.597 Y128.423 E7.99059
G1 X95.058 Y127.677 E8.0212
G1 X94.586 Y126.887 E8.05181
G1 X94.184 Y126.058 E8.08245
G1 X93.855 Y125.198 E8.11308
G1 X93.576 Y124.199 E8.14758
G1 X93.493 Y123.834 E8.16003
G1 X93.328 Y122.929 E8.19062
G1 X93.229 Y121.573 E8.23585
G1 X93.226 Y121.217 E8.24769
G1 X93.227 Y98.806 E8.99308
G1 X93.237 Y98.157 E9.01467
G1 X93.291 Y97.238 E9.04529
G1 X93.425 Y96.327 E9.07591
G1 X93.637 Y95.431 E9.10654
G1 X93.926 Y94.557 E9.13715
G1 X94.233 Y93.832 E9.16334
G1 X94.319 Y93.648 E9.1701
G1 X94.745 Y92.831 E9.20074
G1 X95.24 Y92.055 E9.23135
G1 X95.8 Y91.325 E9.26196
G1 X96.422 Y90.646 E9.29258
M204 S2000
G0 F7500 X96.754 Y90.88
M204 S500
G1 F1500 X97.424 Y90.274 E9.32263
G1 X98.144 Y89.73 E9.35264
G1 X98.911 Y89.252 E9.3827
G1 X99.716 Y88.844 E9.41272
G1 X100.555 Y88.508 E9.44278
G1 X101.771 Y88.165 E9.4848
G1 X102.012 Y88.113 E9.493
G1 X102.902 Y87.962 E9.52303
G1 X104.044 Y87.885 E9.5611
G1 X104.643 Y87.878 E9.58102
G1 X104.906 Y87.878 E9.58977
G1 X105.616 Y87.888 E9.61338
G1 X105.898 Y87.896 E9.62277
G1 X106.187 Y87.908 E9.63239
G1 X108.79 Y87.98 E9.719
G1 X111.316 Y87.978 E9.80301
G1 X112.732 Y87.931 E9.85014
G1 X115.208 Y87.882 E9.9325
G1 X115.58 Y87.881 E9.94488
G1 X116.121 Y87.89 E9.96287
G1 X117.022 Y87.945 E9.9929
G1 X117.915 Y88.08 E10.02293
G1 X118.793 Y88.293 E10.05298
G1 X119.648 Y88.583 E10.08301
G1 X120.474 Y88.947 E10.11303
G1 X121.265 Y89.383 E10.14308
G1 X121.653 Y89.632 E10.15841
G1 X121.828 Y89.75 E10.16543
G1 X122.554 Y90.287 E10.19546
G1 X123.229 Y90.887 E10.2255
G1 X123.849 Y91.544 E10.25555
G1 X124.408 Y92.253 E10.28558
G1 X124.902 Y93.009 E10.31561
G1 X125.328 Y93.806 E10.34567
G1 X125.681 Y94.637 E10.3757
G1 X125.959 Y95.496 E10.40573
G1 X126.175 Y96.458 E10.43852
G1 X126.218 Y96.705 E10.44686
G1 X126.333 Y97.6 E10.47687
G1 X126.368 Y98.325 E10.50102
G1 X126.373 Y98.77 E10.51582
G1 X126.372 Y121.124 E11.25931
G1 X126.361 Y121.854 E11.2836
G1 X126.307 Y122.755 E11.31362
G1 X126.174 Y123.648 E11.34365
G1 X125.963 Y124.526 E11.37368
G1 X125.815 Y124.996 E11.39007
G1 X125.773 Y125.119 E11.39439
G1 X125.443 Y125.96 E11.42444
G1 X125.041 Y126.768 E11.45446
G1 X124.569 Y127.538 E11.4845
G1 X124.03 Y128.263 E11.51454
G1 X123.429 Y128.937 E11.54458
G1 X122.771 Y129.556 E11.57463
G1 X122.061 Y130.114 E11.60466
G1 X121.058 Y130.748 E11.64413
G1 X120.908 Y130.831 E11.64983
G1 X120.1 Y131.233 E11.67985
G1 X119.258 Y131.561 E11.7099
G1 X118.392 Y131.814 E11.73991
G1 X117.506 Y131.99 E11.76995
G1 X116.608 Y132.086 E11.79999
G1 X116.153 Y132.104 E11.81513
G1 X115.077 Y132.122 E11.85093
G1 X104.613 Y132.122 E12.19896
G1 X103.924 Y132.112 E12.22188
G1 X103.022 Y132.059 E12.25193
G1 X102.129 Y131.926 E12.28196
G1 X101.251 Y131.715 E12.312
G1 X100.284 Y131.383 E12.346
G1 X100.124 Y131.319 E12.35173
G1 X99.301 Y130.947 E12.38177
G1 X98.514 Y130.504 E12.41181
G1 X97.77 Y129.992 E12.44185
G1 X97.074 Y129.417 E12.47188
G1 X96.431 Y128.783 E12.50191
G1 X95.847 Y128.094 E12.53195
G1 X95.326 Y127.356 E12.562
G1 X94.873 Y126.575 E12.59203
G1 X94.49 Y125.757 E12.62207
G1 X94.182 Y124.908 E12.65211
G1 X93.966 Y124.111 E12.67957
G1 X93.883 Y123.746 E12.69202
G1 X93.722 Y122.857 E12.72207
G1 X93.629 Y121.57 E12.76499
G1 X93.626 Y121.214 E12.77683
G1 X93.627 Y98.812 E13.52192
G1 X93.637 Y98.163 E13.54351
G1 X93.691 Y97.261 E13.57356
G1 X93.824 Y96.368 E13.60359
G1 X94.036 Y95.49 E13.63364
G1 X94.325 Y94.635 E13.66365
G1 X94.595 Y94.001 E13.68657
G1 X94.681 Y93.817 E13.69333
G1 X95.1 Y93.017 E13.72336
G1 X95.587 Y92.256 E13.75341
G1 X96.14 Y91.542 E13.78345
G1 X96.754 Y90.88 E13.81348
M204 S2000
G1 F2400 E13.01348
;MESH:clip_long.stl
G0 F7500 X103.234 Y97.988
G0 X104.24 Y98.492
G0 X104.892 Y98.859
G0 X105.235 Y119.792
G0 X105.379 Y120.203
G0 X105.771 Y120.475
G0 X114.077 Y120.514
G0 X115.047 Y120.091
G0 X115.109 Y98.86
G0 X115.391 Y98.86
G0 X115.573 Y121.322
M204 S500
;TYPE:WALL-INNER
G1 F2400 E13.81348
G1 F1500 X104.625 Y121.323 E14.17762
G1 X104.426 Y121.323 E14.18423
G1 X104.426 Y121.124 E14.18852
G1 X104.426 Y98.678 E14.93507
G1 X104.875 Y98.677 E14.95001
G1 X105.074 Y98.677 E14.95663
G1 X105.074 Y98.876 E14.96091
G1 X105.074 Y119.819 E15.65747
G1 X105.243 Y120.306 E15.67462
G1 X105.707 Y120.628 E15.69341
G1 X105.977 Y120.677 E15.70253
G1 X114.11 Y120.675 E15.97304
G1 X114.599 Y120.465 E15.99074
G1 X114.883 Y120.028 E16.00807
G1 X114.927 Y119.747 E16.01753
G1 X114.927 Y98.678 E16.71829
G1 X115.573 Y98.678 E16.73978
G1 X115.573 Y121.322 E17.49292
M204 S2000
G0 F7500 X115.919 Y121.722
M204 S500
;TYPE:WALL-OUTER
G1 F1500 X104.092 Y121.723 E17.88629
G1 X104.026 Y121.661 E17.8893
G1 X104.026 Y98.337 E18.66506
G1 X104.085 Y98.278 E18.66783
G1 X105.419 Y98.277 E18.7122
G1 X105.474 Y98.335 E18.71486
G1 X105.474 Y119.752 E19.42719
G1 X105.578 Y120.052 E19.43775
G1 X105.864 Y120.25 E19.44932
G1 X106.013 Y120.277 E19.45436
G1 X114.028 Y120.275 E19.72094
G1 X114.33 Y120.145 E19.73187
G1 X114.501 Y119.882 E19.74231
G1 X114.527 Y119.716 E19.7479
G1 X114.527 Y98.335 E20.45903
G1 X114.583 Y98.278 E20.46169
G1 X115.909 Y98.278 E20.50579
G1 X115.973 Y98.339 E20.50873
G1 X115.973 Y121.665 E21.28456
G1 X115.919 Y121.722 E21.28717
M204 S2000
G0 F7500 X115.533 Y121.319
G0 X115.183 Y120.932
M204 S500
;TYPE:SKIN
G1 F1500 X114.5 Y120.932 E21.30989
G1 X114.862 Y120.777 E21.32298
G1 X115.183 Y120.281 E21.34263
G1 X115.183 Y120.932 E21.36429
M204 S2000
G0 F7500 X115.463 Y120.932
G0 X105.463 Y121.213
G0 X105.463 Y120.933
M204 S500
G1 F1500 X104.816 Y120.933 E21.38581
G1 X104.816 Y120.266 E21.40799
G1 X104.916 Y120.554 E21.41813
G1 X105.463 Y120.933 E21.44026
M204 S2000
G0 F7500 X105.648 Y120.922
M204 S500
;TYPE:SKIN
G1 F1500 X105.887 Y121.161 E21.44589
M204 S2000
G0 F7500 X106.17 Y121.161
M204 S500
G1 F1500 X105.819 Y120.81 E21.45414
M204 S2000
G0 F7500 X106.128 Y120.836
M204 S500
G1 F1500 X106.453 Y121.161 E21.46178
M204 S2000
G0 F7500 X106.736 Y121.161
M204 S500
G1 F1500 X106.411 Y120.836 E21.46943
M204 S2000
G0 F7500 X106.693 Y120.836
M204 S500
G1 F1500 X107.019 Y121.161 E21.47708
M204 S2000
G0 F7500 X107.302 Y121.161
M204 S500
G1 F1500 X106.976 Y120.836 E21.48474
M204 S2000
G0 F7500 X107.259 Y120.836
M204 S500
G1 F1500 X107.584 Y121.161 E21.49238
M204 S2000
G0 F7500 X107.867 Y121.161
M204 S500
G1 F1500 X107.542 Y120.836 E21.50002
M204 S2000
G0 F7500 X107.825 Y120.836
M204 S500
G1 F1500 X108.15 Y121.161 E21.50767
M204 S2000
G0 F7500 X108.433 Y121.161
M204 S500
G1 F1500 X108.108 Y120.836 E21.51531
M204 S2000
G0 F7500 X108.39 Y120.836
M204 S500
G1 F1500 X108.716 Y121.161 E21.52297
M204 S2000
G0 F7500 X108.999 Y121.161
M204 S500
G1 F1500 X108.673 Y120.836 E21.53062
M204 S2000
G0 F7500 X108.955 Y120.835
M204 S500
G1 F1500 X109.281 Y121.161 E21.53829
M204 S2000
G0 F7500 X109.564 Y121.161
M204 S500
G1 F1500 X109.238 Y120.835 E21.54596
M204 S2000
G0 F7500 X109.521 Y120.835
M204 S500
G1 F1500 X109.847 Y121.161 E21.55362
M204 S2000
G0 F7500 X110.13 Y121.161
M204 S500
G1 F1500 X109.804 Y120.835 E21.56129
M204 S2000
G0 F7500 X110.087 Y120.835
M204 S500
G1 F1500 X110.413 Y121.161 E21.56896
M204 S2000
G0 F7500 X110.696 Y121.161
M204 S500
G1 F1500 X110.37 Y120.835 E21.57662
M204 S2000
G0 F7500 X110.653 Y120.835
M204 S500
G1 F1500 X110.978 Y121.161 E21.58428
M204 S2000
G0 F7500 X111.261 Y121.161
M204 S500
G1 F1500 X110.935 Y120.835 E21.59195
M204 S2000
G0 F7500 X111.218 Y120.835
M204 S500
G1 F1500 X111.544 Y121.161 E21.59961
M204 S2000
G0 F7500 X111.827 Y121.161
M204 S500
G1 F1500 X111.5 Y120.834 E21.6073
M204 S2000
G0 F7500 X111.783 Y120.834
M204 S500
G1 F1500 X112.11 Y121.161 E21.61499
M204 S2000
G0 F7500 X112.393 Y121.161
M204 S500
G1 F1500 X112.066 Y120.834 E21.62269
M204 S2000
G0 F7500 X112.349 Y120.834
M204 S500
G1 F1500 X112.676 Y121.161 E21.63038
M204 S2000
G0 F7500 X112.958 Y121.161
M204 S500
G1 F1500 X112.632 Y120.834 E21.63805
M204 S2000
G0 F7500 X112.915 Y120.834
M204 S500
G1 F1500 X113.241 Y121.161 E21.64573
M204 S2000
G0 F7500 X113.524 Y121.161
M204 S500
G1 F1500 X113.197 Y120.834 E21.65342
M204 S2000
G0 F7500 X113.48 Y120.834
M204 S500
G1 F1500 X113.807 Y121.161 E21.66111
M204 S2000
G0 F7500 X114.09 Y121.161
M204 S500
G1 F1500 X113.763 Y120.834 E21.66881
M204 S2000
G0 F7500 X114.046 Y120.834
M204 S500
G1 F1500 X114.368 Y121.156 E21.67638
M204 S2000
G0 F7500 X114.367 Y121.213
G0 X115.391 Y121.14
G0 X115.463 Y120.142
G0 X115.334 Y120.142
M204 S500
G1 F1500 X115.067 Y119.875 E21.68266
M204 S2000
G0 F7500 X115.085 Y119.611
M204 S500
G1 F1500 X115.413 Y119.938 E21.69036
M204 S2000
G0 F7500 X115.413 Y119.655
M204 S500
G1 F1500 X115.085 Y119.328 E21.69806
M204 S2000
G0 F7500 X115.085 Y119.045
M204 S500
G1 F1500 X115.413 Y119.373 E21.70578
M204 S2000
G0 F7500 X115.413 Y119.09
M204 S500
G1 F1500 X115.085 Y118.762 E21.71349
M204 S2000
G0 F7500 X115.085 Y118.479
M204 S500
G1 F1500 X115.413 Y118.807 E21.7212
M204 S2000
G0 F7500 X115.413 Y118.524
M204 S500
G1 F1500 X115.085 Y118.197 E21.72891
M204 S2000
G0 F7500 X115.085 Y117.914
M204 S500
G1 F1500 X115.413 Y118.241 E21.73661
M204 S2000
G0 F7500 X115.413 Y117.958
M204 S500
G1 F1500 X115.085 Y117.631 E21.74431
M204 S2000
G0 F7500 X115.085 Y117.348
M204 S500
G1 F1500 X115.413 Y117.676 E21.75203
M204 S2000
G0 F7500 X115.413 Y117.393
M204 S500
G1 F1500 X115.085 Y117.065 E21.75974
M204 S2000
G0 F7500 X115.085 Y116.782
M204 S500
G1 F1500 X115.413 Y117.11 E21.76745
M204 S2000
G0 F7500 X115.413 Y116.827
M204 S500
G1 F1500 X115.085 Y116.5 E21.77516
M204 S2000
G0 F7500 X115.085 Y116.217
M204 S500
G1 F1500 X115.413 Y116.544 E21.78286
M204 S2000
G0 F7500 X115.413 Y116.261
M204 S500
G1 F1500 X115.085 Y115.934 E21.79056
M204 S2000
G0 F7500 X115.085 Y115.651
M204 S500
G1 F1500 X115.413 Y115.978 E21.79826
M204 S2000
G0 F7500 X115.413 Y115.696
M204 S500
G1 F1500 X115.085 Y115.368 E21.80598
M204 S2000
G0 F7500 X115.085 Y115.085
M204 S500
G1 F1500 X115.413 Y115.413 E21.81369
M204 S2000
G0 F7500 X115.413 Y115.13
M204 S500
G1 F1500 X115.085 Y114.803 E21.82139
M204 S2000
G0 F7500 X115.085 Y114.52
M204 S500
G1 F1500 X115.413 Y114.847 E21.8291
M204 S2000
G0 F7500 X115.413 Y114.564
M204 S500
G1 F1500 X115.085 Y114.237 E21.8368
M204 S2000
G0 F7500 X115.085 Y113.954
M204 S500
