;FLAVOR:Marlin
;TIME:7529
;Filament used: 4.35625m
;Layer height: 0.2
;MINX:65.227
;MINY:63.626
;MINZ:0.2
;MAXX:154.773
;MAXY:154.773
;MAXZ:8
;Generated with Creality Slicer 4.8.2-252
M140 S60
M105
M190 S60
M104 S200
M105
M109 S200
M82 ;absolute extrusion mode

G28 ;Home

G92 E0 ;Reset Extruder
G1 Z2.0 F3000 ;Move Z Axis up
G1 X10.1 Y20 Z0.28 F5000.0 ;Move to start position
G1 X10.1 Y200.0 Z0.28 F1500.0 E15 ;Draw the first line
G1 X10.4 Y200.0 Z0.28 F5000.0 ;Move to side a little
G1 X10.4 Y20 Z0.28 F1500.0 E30 ;Draw the second line
G92 E0 ;Reset Extruder
G1 Z2.0 F3000 ;Move Z Axis up

G92 E0
G92 E0
G1 F2400 E-0.8
;LAYER_COUNT:40
;LAYER:0
M107
M204 S2000
G0 F7500 X79.897 Y67.431 Z0.2
M204 S500
;TYPE:SKIRT
G1 F2400 E0
G1 F1500 X80.545 Y66.754 E0.03117
G1 X81.249 Y66.134 E0.06237
G1 X82.003 Y65.576 E0.09357
G1 X82.802 Y65.084 E0.12478
G1 X83.639 Y64.663 E0.15594
G1 X84.51 Y64.314 E0.18715
G1 X84.964 Y64.165 E0.20304
G1 X85.145 Y64.11 E0.20933
G1 X86.053 Y63.876 E0.24052
G1 X86.978 Y63.72 E0.27172
G1 X88.203 Y63.636 E0.31256
G1 X88.97 Y63.627 E0.33807
G1 X100.989 Y63.626 E0.73783
G1 X101.877 Y63.638 E0.76736
G1 X102.814 Y63.693 E0.79858
G1 X103.422 Y63.771 E0.81897
G1 X103.769 Y63.827 E0.83066
G1 X105.929 Y64.197 E0.90355
G1 X108.465 Y64.557 E0.98874
G1 X110.912 Y64.836 E1.07066
G1 X113.473 Y65.053 E1.15614
G1 X116.023 Y65.198 E1.24109
G1 X117.161 Y65.246 E1.27897
G1 X118.095 Y65.325 E1.31015
G1 X119.02 Y65.484 E1.34137
G1 X119.927 Y65.721 E1.37255
G1 X121.17 Y66.187 E1.4167
G1 X121.334 Y66.26 E1.42267
G1 X122.565 Y66.903 E1.46886
G1 X123.9 Y67.714 E1.52082
G1 X124.176 Y67.886 E1.53163
G1 X126.331 Y69.146 E1.61466
G1 X128.532 Y70.351 E1.69812
G1 X130.79 Y71.506 E1.78248
G1 X133.056 Y72.586 E1.86596
G1 X135.35 Y73.598 E1.94936
G1 X137.665 Y74.544 E2.03254
G1 X140.065 Y75.446 E2.11781
G1 X142.413 Y76.254 E2.2004
G1 X144.859 Y77.02 E2.28565
G1 X146.562 Y77.507 E2.34456
G1 X147.452 Y77.803 E2.37576
G1 X148.313 Y78.174 E2.40694
G1 X148.75 Y78.397 E2.42326
G1 X148.932 Y78.495 E2.43014
G1 X149.738 Y78.974 E2.46132
G1 X150.5 Y79.521 E2.49252
G1 X151.213 Y80.13 E2.52371
G1 X151.872 Y80.798 E2.55491
G1 X152.471 Y81.519 E2.58609
G1 X153.007 Y82.289 E2.6173
G1 X153.475 Y83.102 E2.6485
G1 X154.039 Y84.377 E2.69487
G1 X154.081 Y84.491 E2.69891
G1 X154.367 Y85.384 E2.7301
G1 X154.576 Y86.299 E2.76131
G1 X154.707 Y87.227 E2.79248
G1 X154.757 Y88.101 E2.8216
G1 X154.773 Y89.092 E2.85457
G1 X154.773 Y101.146 E3.25548
G1 X154.763 Y101.849 E3.27887
G1 X154.737 Y102.463 E3.29931
G1 X154.651 Y103.684 E3.34002
G1 X154.504 Y106.308 E3.42743
G1 X154.433 Y108.833 E3.51144
G1 X154.433 Y111.358 E3.59543
G1 X154.504 Y113.829 E3.67765
G1 X154.72 Y117.334 E3.79444
G1 X154.751 Y117.975 E3.81579
G1 X154.771 Y119.032 E3.85095
G1 X154.773 Y119.239 E3.85784
G1 X154.773 Y131.104 E4.25247
G1 X154.763 Y131.845 E4.27712
G1 X154.71 Y132.782 E4.30833
G1 X154.578 Y133.71 E4.33951
G1 X154.367 Y134.624 E4.37071
G1 X154.079 Y135.517 E4.40191
G1 X153.717 Y136.382 E4.4331
G1 X153.39 Y137.02 E4.45695
G1 X153.296 Y137.19 E4.46341
G1 X152.808 Y137.99 E4.49458
G1 X152.253 Y138.747 E4.5258
G1 X151.636 Y139.453 E4.55698
G1 X150.961 Y140.104 E4.58817
G1 X150.233 Y140.695 E4.61936
G1 X149.457 Y141.222 E4.65056
G1 X148.639 Y141.681 E4.68176
G1 X147.498 Y142.179 E4.72316
G1 X147.366 Y142.228 E4.72785
G1 X146.506 Y142.508 E4.75793
G1 X146.184 Y142.598 E4.76905
G1 X143.743 Y143.32 E4.85371
G1 X141.331 Y144.108 E4.93811
G1 X138.952 Y144.962 E5.02218
G1 X136.633 Y145.867 E5.10497
G1 X134.315 Y146.85 E5.18872
G1 X132 Y147.909 E5.27339
G1 X129.763 Y149.009 E5.3563
G1 X127.546 Y150.18 E5.43969
G1 X125.32 Y151.436 E5.5247
G1 X123.171 Y152.729 E5.60812
G1 X122.868 Y152.918 E5.61999
G1 X122.516 Y153.13 E5.63366
G1 X121.693 Y153.579 E5.66484
G1 X120.795 Y153.972 E5.69745
G1 X120.66 Y154.024 E5.70226
G1 X119.771 Y154.323 E5.73345
G1 X118.86 Y154.546 E5.76465
G1 X117.933 Y154.69 E5.79585
G1 X116.892 Y154.757 E5.83054
G1 X115.878 Y154.773 E5.86427
G1 X103.854 Y154.773 E6.26419
G1 X103.148 Y154.763 E6.28768
G1 X102.212 Y154.71 E6.31886
G1 X101.283 Y154.577 E6.35007
G1 X100.37 Y154.365 E6.38125
G1 X99.477 Y154.077 E6.41246
G1 X98.831 Y153.813 E6.43567
G1 X98.667 Y153.74 E6.44164
G1 X97.428 Y153.092 E6.48814
G1 X96.119 Y152.296 E6.5391
G1 X95.889 Y152.153 E6.54811
G1 X93.725 Y150.886 E6.63151
G1 X91.521 Y149.676 E6.71514
G1 X89.283 Y148.531 E6.79875
G1 X86.986 Y147.436 E6.88338
G1 X84.695 Y146.422 E6.96671
G1 X82.379 Y145.472 E7.04997
G1 X79.993 Y144.576 E7.13474
G1 X77.637 Y143.765 E7.21761
G1 X75.229 Y143.01 E7.30155
G1 X73.509 Y142.518 E7.36105
G1 X72.619 Y142.222 E7.39225
G1 X72.065 Y141.994 E7.41217
G1 X71.822 Y141.886 E7.42102
G1 X70.982 Y141.469 E7.45221
G1 X70.181 Y140.982 E7.48339
G1 X69.424 Y140.428 E7.51459
G1 X68.717 Y139.812 E7.54578
G1 X68.065 Y139.138 E7.57697
G1 X67.473 Y138.411 E7.60815
G1 X66.944 Y137.636 E7.63936
G1 X66.484 Y136.818 E7.67057
G1 X66.038 Y135.821 E7.7069
G1 X65.996 Y135.713 E7.71075
G1 X65.694 Y134.825 E7.74195
G1 X65.468 Y133.915 E7.77314
G1 X65.321 Y132.989 E7.80432
G1 X65.25 Y131.947 E7.83906
G1 X65.229 Y130.9 E7.87389
G1 X65.227 Y130.679 E7.88124
G1 X65.228 Y118.851 E8.27464
G1 X65.238 Y118.139 E8.29832
G1 X65.265 Y117.512 E8.3192
G1 X65.351 Y116.302 E8.35954
G1 X65.496 Y113.752 E8.44449
G1 X65.568 Y111.183 E8.52997
G1 X65.568 Y108.705 E8.61239
G1 X65.497 Y106.208 E8.69547
G1 X65.273 Y102.62 E8.81504
G1 X65.254 Y102.156 E8.83049
G1 X65.229 Y100.921 E8.87157
G1 X65.227 Y100.698 E8.87899
G1 X65.228 Y88.792 E9.27499
G1 X65.238 Y88.117 E9.29744
G1 X65.292 Y87.181 E9.32862
G1 X65.425 Y86.252 E9.35984
G1 X65.638 Y85.339 E9.39102
G1 X65.927 Y84.447 E9.42221
G1 X66.291 Y83.582 E9.45342
G1 X66.769 Y82.68 E9.48737
G1 X66.866 Y82.516 E9.49371
G1 X67.378 Y81.73 E9.52491
G1 X67.954 Y80.99 E9.5561
G1 X68.626 Y80.268 E9.5889
G1 X69.406 Y79.504 E9.62522
G1 X69.929 Y79.004 E9.64928
G1 X71.716 Y77.196 E9.73383
G1 X73.414 Y75.379 E9.81655
G1 X75.096 Y73.471 E9.90115
G1 X76.702 Y71.543 E9.98461
G1 X78.284 Y69.531 E10.06973
G1 X79.218 Y68.286 E10.1215
G1 X79.309 Y68.162 E10.12662
G1 X79.897 Y67.431 E10.15782
M204 S2000
G0 F7500 X80.209 Y67.683
M204 S500
G1 F1500 X80.847 Y67.019 E10.18845
G1 X81.54 Y66.413 E10.21907
G1 X82.283 Y65.87 E10.24967
G1 X83.071 Y65.393 E10.28031
G1 X83.897 Y64.986 E10.31094
G1 X85.08 Y64.548 E10.35289
G1 X85.261 Y64.493 E10.35919
G1 X86.153 Y64.264 E10.38982
G1 X87.061 Y64.113 E10.42043
G1 X88.208 Y64.036 E10.45867
G1 X88.97 Y64.027 E10.48401
G1 X100.989 Y64.026 E10.88377
G1 X101.871 Y64.038 E10.9131
G1 X102.79 Y64.092 E10.94372
G1 X103.36 Y64.166 E10.96284
G1 X103.702 Y64.221 E10.97436
G1 X105.877 Y64.594 E11.04776
G1 X108.4 Y64.952 E11.13251
G1 X110.904 Y65.237 E11.21634
G1 X113.414 Y65.45 E11.30012
G1 X115.987 Y65.596 E11.38583
G1 X117.144 Y65.645 E11.42435
G1 X118.061 Y65.724 E11.45496
G1 X118.968 Y65.882 E11.48558
G1 X119.858 Y66.118 E11.51621
G1 X121.008 Y66.552 E11.55709
G1 X121.172 Y66.625 E11.56306
G1 X122.358 Y67.246 E11.60759
G1 X123.688 Y68.053 E11.65933
G1 X123.968 Y68.228 E11.67031
G1 X126.131 Y69.492 E11.75364
G1 X128.349 Y70.707 E11.83775
G1 X130.615 Y71.865 E11.92239
G1 X132.889 Y72.948 E12.00616
G1 X135.204 Y73.971 E12.09034
G1 X137.539 Y74.925 E12.17424
G1 X139.899 Y75.811 E12.25808
G1 X142.311 Y76.642 E12.34293
G1 X144.707 Y77.391 E12.42643
G1 X146.452 Y77.891 E12.4868
G1 X147.325 Y78.183 E12.51742
G1 X148.56 Y78.749 E12.5626
G1 X148.742 Y78.847 E12.56948
G1 X149.533 Y79.318 E12.6001
G1 X150.28 Y79.856 E12.63072
G1 X150.978 Y80.457 E12.66135
G1 X151.621 Y81.116 E12.69198
G1 X152.204 Y81.829 E12.72261
G1 X152.723 Y82.589 E12.75322
G1 X153.174 Y83.392 E12.78385
G1 X153.663 Y84.516 E12.82462
G1 X153.705 Y84.63 E12.82866
G1 X153.986 Y85.506 E12.85926
G1 X154.189 Y86.404 E12.88988
G1 X154.314 Y87.317 E12.92053
G1 X154.357 Y88.108 E12.94688
G1 X154.373 Y89.092 E12.97961
G1 X154.373 Y101.141 E13.38036
G1 X154.363 Y101.844 E13.40374
G1 X154.338 Y102.435 E13.42342
G1 X154.249 Y103.704 E13.46573
G1 X154.104 Y106.275 E13.55138
G1 X154.033 Y108.822 E13.63612
G1 X154.033 Y111.335 E13.71971
G1 X154.105 Y113.866 E13.80392
G1 X154.321 Y117.365 E13.92052
G1 X154.351 Y117.982 E13.94107
G1 X154.371 Y119.039 E13.97623
G1 X154.373 Y119.239 E13.98288
G1 X154.373 Y131.099 E14.37735
G1 X154.363 Y131.84 E14.40199
G1 X154.311 Y132.759 E14.43261
G1 X154.179 Y133.67 E14.46323
G1 X153.968 Y134.567 E14.49387
G1 X153.681 Y135.441 E14.52447
G1 X153.318 Y136.288 E14.55512
G1 X153.04 Y136.826 E14.57526
G1 X152.946 Y136.996 E14.58172
G1 X152.466 Y137.782 E14.61235
G1 X151.92 Y138.523 E14.64297
G1 X151.311 Y139.214 E14.6736
G1 X150.645 Y139.849 E14.70421
G1 X149.926 Y140.424 E14.73483
G1 X149.16 Y140.935 E14.76546
G1 X148.352 Y141.377 E14.79609
G1 X147.359 Y141.804 E14.83204
G1 X147.227 Y141.853 E14.83672
G1 X146.398 Y142.123 E14.86572
G1 X146.11 Y142.204 E14.87567
G1 X143.611 Y142.943 E14.96235
G1 X141.208 Y143.727 E15.04642
G1 X138.82 Y144.584 E15.1308
G1 X136.468 Y145.503 E15.21479
G1 X134.128 Y146.495 E15.29932
G1 X131.85 Y147.537 E15.38264
G1 X129.58 Y148.654 E15.46679
G1 X127.342 Y149.835 E15.55095
G1 X125.15 Y151.072 E15.63466
G1 X122.93 Y152.409 E15.72086
G1 X122.662 Y152.575 E15.73134
G1 X122.31 Y152.787 E15.74501
G1 X121.501 Y153.228 E15.77566
G1 X120.651 Y153.599 E15.8065
G1 X120.516 Y153.651 E15.81132
G1 X119.643 Y153.944 E15.84194
G1 X118.749 Y154.16 E15.87253
G1 X117.838 Y154.298 E15.90318
G1 X116.885 Y154.357 E15.93494
G1 X115.878 Y154.373 E15.96843
G1 X103.86 Y154.373 E16.36815
G1 X103.154 Y154.363 E16.39164
G1 X102.235 Y154.31 E16.42225
G1 X101.324 Y154.177 E16.45288
G1 X100.428 Y153.966 E16.48349
G1 X99.553 Y153.678 E16.51413
G1 X98.993 Y153.448 E16.53427
G1 X98.829 Y153.375 E16.54024
G1 X97.635 Y152.75 E16.58506
G1 X96.331 Y151.956 E16.63584
G1 X96.108 Y151.817 E16.64458
G1 X93.915 Y150.533 E16.7291
G1 X91.731 Y149.335 E16.81195
G1 X89.43 Y148.157 E16.89793
G1 X87.183 Y147.086 E16.98072
G1 X84.859 Y146.057 E17.06526
G1 X82.494 Y145.087 E17.15027
G1 X80.159 Y144.211 E17.23322
G1 X77.772 Y143.388 E17.3172
G1 X75.344 Y142.627 E17.40183
G1 X73.619 Y142.134 E17.4615
G1 X72.745 Y141.842 E17.49215
G1 X72.228 Y141.628 E17.51076
G1 X71.985 Y141.52 E17.5196
G1 X71.161 Y141.11 E17.55022
G1 X70.375 Y140.63 E17.58085
G1 X69.634 Y140.084 E17.61146
G1 X68.943 Y139.475 E17.6421
G1 X68.308 Y138.809 E17.6727
G1 X67.733 Y138.09 E17.70332
G1 X67.222 Y137.324 E17.73395
G1 X66.78 Y136.516 E17.76458
G1 X66.411 Y135.676 E17.7951
G1 X66.369 Y135.568 E17.79895
G1 X66.073 Y134.696 E17.82958
G1 X65.853 Y133.802 E17.8602
G1 X65.712 Y132.892 E17.89083
G1 X65.65 Y131.939 E17.92259
G1 X65.629 Y130.892 E17.95742
G1 X65.627 Y130.679 E17.96451
G1 X65.628 Y118.856 E18.35774
G1 X65.638 Y118.144 E18.38143
G1 X65.664 Y117.54 E18.40153
G1 X65.748 Y116.354 E18.44108
G1 X65.896 Y113.75 E18.52783
G1 X65.968 Y111.195 E18.61284
G1 X65.968 Y108.694 E18.69603
G1 X65.897 Y106.172 E18.77994
G1 X65.673 Y102.595 E18.89915
G1 X65.654 Y102.148 E18.91403
G1 X65.629 Y100.913 E18.95511
G1 X65.627 Y100.698 E18.96226
G1 X65.628 Y88.798 E19.35806
G1 X65.638 Y88.123 E19.38051
G1 X65.692 Y87.204 E19.41113
G1 X65.825 Y86.293 E19.44175
G1 X66.037 Y85.397 E19.47237
G1 X66.325 Y84.523 E19.50298
G1 X66.689 Y83.677 E19.53361
G1 X67.113 Y82.884 E19.56352
G1 X67.21 Y82.72 E19.56986
G1 X67.713 Y81.948 E19.60051
G1 X68.281 Y81.224 E19.63111
G1 X68.906 Y80.554 E19.66159
G1 X69.682 Y79.793 E19.69774
G1 X70.225 Y79.274 E19.72272
G1 X71.992 Y77.486 E19.80633
G1 X73.723 Y75.634 E19.89064
G1 X75.387 Y73.746 E19.97435
G1 X77.01 Y71.797 E20.0587
G1 X78.614 Y69.758 E20.14499
G1 X79.501 Y68.576 E20.19414
G1 X79.631 Y68.399 E20.20145
G1 X80.209 Y67.683 E20.23205
M204 S2000
G0 F7500 X80.52 Y67.934
M204 S500
G1 F1500 X81.148 Y67.285 E20.26209
G1 X81.83 Y66.693 E20.29213
G1 X82.562 Y66.165 E20.32215
G1 X83.338 Y65.703 E20.35218
G1 X84.152 Y65.311 E20.38223
G1 X85.196 Y64.931 E20.41919
G1 X85.377 Y64.876 E20.42548
G1 X86.252 Y64.652 E20.45552
G1 X87.144 Y64.506 E20.48558
G1 X88.213 Y64.436 E20.52121
G1 X88.97 Y64.427 E20.54639
G1 X100.989 Y64.426 E20.94615
G1 X101.865 Y64.438 E20.97528
G1 X102.767 Y64.492 E21.00534
G1 X103.297 Y64.561 E21.02312
G1 X103.634 Y64.615 E21.03447
G1 X105.819 Y64.989 E21.1082
G1 X108.335 Y65.347 E21.19272
G1 X110.896 Y65.638 E21.27845
G1 X113.358 Y65.847 E21.36063
G1 X116.015 Y65.998 E21.44915
G1 X117.127 Y66.045 E21.48616
G1 X118.027 Y66.123 E21.51621
G1 X118.916 Y66.28 E21.54624
G1 X119.788 Y66.516 E21.57628
G1 X120.845 Y66.917 E21.61388
G1 X121.009 Y66.99 E21.61985
G1 X122.15 Y67.588 E21.6627
G1 X123.476 Y68.393 E21.71429
G1 X123.735 Y68.555 E21.72446
G1 X125.943 Y69.845 E21.80951
G1 X128.154 Y71.056 E21.89335
G1 X130.439 Y72.225 E21.97872
G1 X132.733 Y73.317 E22.06322
G1 X135.027 Y74.33 E22.14663
G1 X137.384 Y75.293 E22.23132
G1 X139.776 Y76.192 E22.31631
G1 X142.199 Y77.026 E22.40154
G1 X144.604 Y77.778 E22.48535
G1 X146.342 Y78.276 E22.54548
G1 X147.198 Y78.563 E22.57551
G1 X148.371 Y79.101 E22.61843
G1 X148.553 Y79.199 E22.62531
G1 X149.328 Y79.662 E22.65533
G1 X150.06 Y80.192 E22.68539
G1 X150.741 Y80.784 E22.7154
G1 X151.368 Y81.435 E22.74546
G1 X151.935 Y82.138 E22.7755
G1 X152.437 Y82.888 E22.80552
G1 X152.871 Y83.68 E22.83556
G1 X153.288 Y84.654 E22.8708
G1 X153.33 Y84.768 E22.87484
G1 X153.604 Y85.628 E22.90486
G1 X153.802 Y86.51 E22.93492
G1 X153.92 Y87.405 E22.96495
G1 X153.957 Y88.115 E22.9886
G1 X153.973 Y89.092 E23.0211
G1 X153.973 Y101.135 E23.42165
G1 X153.963 Y101.838 E23.44503
G1 X153.939 Y102.407 E23.46397
G1 X153.851 Y103.656 E23.50562
G1 X153.704 Y106.276 E23.5929
G1 X153.633 Y108.811 E23.67724
G1 X153.633 Y111.346 E23.76156
G1 X153.705 Y113.87 E23.84554
G1 X153.915 Y117.291 E23.95954
G1 X153.923 Y117.396 E23.96304
G1 X153.951 Y117.99 E23.98282
G1 X153.973 Y119.239 E24.02437
G1 X153.973 Y131.094 E24.41867
G1 X153.963 Y131.835 E24.44332
G1 X153.911 Y132.736 E24.47333
G1 X153.779 Y133.63 E24.50339
G1 X153.569 Y134.508 E24.53342
G1 X153.282 Y135.364 E24.56344
G1 X152.92 Y136.192 E24.5935
G1 X152.69 Y136.633 E24.61004
G1 X152.596 Y136.803 E24.6165
G1 X152.125 Y137.573 E24.64653
G1 X151.587 Y138.298 E24.67655
G1 X150.987 Y138.973 E24.70659
G1 X150.33 Y139.593 E24.73664
G1 X149.62 Y140.152 E24.76669
G1 X148.864 Y140.645 E24.79671
G1 X148.067 Y141.07 E24.82675
G1 X147.22 Y141.429 E24.85735
G1 X147.088 Y141.478 E24.86203
G1 X146.29 Y141.738 E24.88995
G1 X145.971 Y141.827 E24.90096
G1 X143.478 Y142.565 E24.98744
G1 X141.075 Y143.349 E25.07151
G1 X138.687 Y144.206 E25.15589
G1 X136.332 Y145.126 E25.23998
G1 X133.998 Y146.116 E25.32431
G1 X131.672 Y147.18 E25.40938
G1 X129.395 Y148.3 E25.49378
G1 X127.137 Y149.491 E25.57869
G1 X124.942 Y150.73 E25.66252
G1 X122.743 Y152.054 E25.7479
G1 X122.455 Y152.233 E25.75917
G1 X122.103 Y152.445 E25.77284
G1 X121.31 Y152.876 E25.80286
G1 X120.507 Y153.225 E25.83198
G1 X120.372 Y153.277 E25.83679
G1 X119.516 Y153.564 E25.86682
G1 X118.638 Y153.774 E25.89685
G1 X117.744 Y153.906 E25.9269
G1 X116.878 Y153.958 E25.95576
G1 X116.049 Y153.972 E25.98334
G1 X104.011 Y153.974 E26.38372
G1 X103.16 Y153.963 E26.41203
G1 X102.258 Y153.91 E26.44208
G1 X101.365 Y153.778 E26.4721
G1 X100.486 Y153.567 E26.50217
G1 X99.63 Y153.279 E26.53221
G1 X99.156 Y153.083 E26.54927
G1 X98.992 Y153.01 E26.55524
G1 X97.843 Y152.408 E26.59838
G1 X96.542 Y151.617 E26.64903
G1 X96.3 Y151.466 E26.65851
G1 X94.13 Y150.195 E26.74216
G1 X91.872 Y148.957 E26.8278
G1 X89.634 Y147.811 E26.91143
G1 X87.368 Y146.731 E26.99492
G1 X84.994 Y145.68 E27.08127
G1 X82.65 Y144.719 E27.16553
G1 X80.294 Y143.834 E27.24924
G1 X77.884 Y143.004 E27.33402
G1 X75.448 Y142.24 E27.41893
G1 X73.729 Y141.749 E27.47839
G1 X72.872 Y141.462 E27.50845
G1 X72.39 Y141.263 E27.5258
G1 X72.147 Y141.155 E27.53464
G1 X71.339 Y140.752 E27.56467
G1 X70.57 Y140.279 E27.5947
G1 X69.845 Y139.74 E27.62475
G1 X69.171 Y139.139 E27.65478
G1 X68.553 Y138.481 E27.68481
G1 X67.995 Y137.77 E27.71487
G1 X67.503 Y137.013 E27.7449
G1 X67.079 Y136.216 E27.77492
G1 X66.784 Y135.531 E27.79973
G1 X66.742 Y135.423 E27.80358
G1 X66.452 Y134.568 E27.83361
G1 X66.239 Y133.69 E27.86366
G1 X66.104 Y132.797 E27.8937
